!!!!SEGMENT: pl-kk--kk-i-474--002-dublet_studzinski-piotr--quarta-missa-gloria-dublet.krn
!!!cenid: 18xx:1385
!!!COM: Studziński, Piotr
!!!COM-rismid: pe50044409
!!!CDT: 1825/10/16-1869/04/20
!!!CNT: Polish
!!!OTL: Quarta Missa – Gloria
!!!PDT: 1856
!!!AGN: Sacred; Mass
!!!SMS-siglum: PL-Kk
!!!SMS-shelfmark: Kk.I.474
!!!SMS-shelfwork: 001-002 M
!!!SMS-variant:
!!!SMS-altvar:
!!!NIFC-rismid: 1001140244
!!!URL-scan: http://repozytorium.nifc.pl/skany/pl-kk-nut--i-474
!!!ONB-nifc: UWAGA: części Mszy: 1. Kyrie, 2. Gloria, 3. Credo, 4. Sanctus, 5. Benedictus, 6. Agnus, 7. Dona. Uwaga: Gloria zapisana osobno na ostatnich stronach
**kern	**text	**kern	**text	**text	**dynam	**kern	**text	**dynam	**kern	**text	**text	**dynam	**kern	**text	**dynam	**kern	**text	**dynam
*part5	*part5	*part5	*part5	*part5	*part5	*part4	*part4	*part4	*part3	*part3	*part3	*part3	*part2	*part2	*part2	*part1	*part1	*part1
*staff6	*staff6	*staff5	*staff5	*staff5	*	*staff4	*staff4	*	*staff3	*staff3	*staff3	*	*staff2	*staff2	*	*staff1	*staff1	*
*	*	*I"Organo	*	*	*	*I"Basſo	*	*	*I"Tenor	*	*	*	*I"Alto	*	*	*I"Soprano	*	*
*	*	*I'org	*	*	*	*I'B	*	*	*I'T	*	*	*	*I'A	*	*	*I'S	*	*
*group2	*	*group2	*	*	*	*group1	*	*	*group1	*	*	*	*group1	*	*	*group1	*	*
*clefF4	*	*clefG2	*	*	*	*clefF4	*	*	*clefC4	*	*	*	*clefC3	*	*	*clefG2	*	*
*k[]	*	*k[]	*	*	*	*k[]	*	*	*k[]	*	*	*	*k[]	*	*	*k[]	*	*
*C:	*	*C:	*	*	*	*C:	*	*	*C:	*	*	*	*C:	*	*	*C:	*	*
*M2/2	*	*M2/2	*	*	*	*M2/2	*	*	*M2/2	*	*	*	*M2/2	*	*	*M2/2	*	*
*met(c|)	*	*met(c|)	*	*	*	*met(c|)	*	*	*met(c|)	*	*	*	*met(c|)	*	*	*met(c|)	*	*
=1	=1	=1	=1	=1	=1	=1	=1	=1	=1	=1	=1	=1	=1	=1	=1	=1	=1	=1
*2\right	*	*2\right	*	*	*	*2\right	*	*	*2\right	*	*	*	*2\right	*	*	*2\right	*	*
*^	*	*^	*	*	*	*	*	*	*	*	*	*	*	*	*	*	*	*
!	!	!	!LO:TX:a:t=P:problem:all\left,middle,right:global	!	!	!	!	!LO:TX:a:t=Allegretto	!	!	!LO:TX:a:t=allegretto	!	!	!	!LO:TX:a:t=Gloria	!	!	!	!	!
!	!	!	!LO:TX:a:t=allegretto	!	!	!	!LO:DY:a	!LO:TX:a:t=Gloria	!	!	!LO:TX:a:t=P:problem:all\right:global	!	!	!	!LO:TX:a:t=P:problem:all\right:global	!	!	!LO:TX:a:t=P:problem:all\right:global	!	!
!	!	!	!LO:TX:a:t=Gloria	!	!	!	!LO:DY:a	!LO:TX:a:t=P:problem:all\right:global	!	!	!LO:TX:a:t=Gloria	!	!	!LO:DY:a	!LO:TX:a:t=allegretto	!	!	!LO:TX:a:t=Gloria, allegretto	!	!LO:DY:a:t=for
!	!	!	!LO:TX:a:t=P:problem:brak nazwy głosu	!	!	!	!LO:DY:b	!LO:TX:a:t=P:problem:zapis dynamiki na środku pięciolinii	!	!	!	!	!	!	!	!	!	!	!	!
4.c/	4.c\	Glo-	4.cc/	4.cc\	.	.	f	4.c\	Glo-	f	4.c\	Glo-	.	f	4.c\	Glo-	.	4.cc\	Glo-	f
8c/	8c\	-ri-	8cc/	8cc\	.	.	.	8c\	-ri-	.	8c\	-ri-	.	.	8c\	-ri-	.	8cc\	-ri-	.
2c/	2c\	-a	2cc/	2cc\	.	.	.	2c\	-a	.	2c\	-a	.	.	2c\	-a	.	2cc\	-a	.
=2	=2	=2	=2	=2	=2	=2	=2	=2	=2	=2	=2	=2	=2	=2	=2	=2	=2	=2	=2	=2
4.e/	4.e\	Glo-	4.ee/	4.ee\	.	.	.	4.e\	Glo-	.	4.e\	Glo-	.	.	4.e\	Glo-	.	4.ee\	Glo-	.
8c/	8c\	-ri-	8cc/	8cc\	.	.	.	8c\	-ri-	.	8c\	-ri-	.	.	8c\	-ri-	.	8cc\	-ri-	.
2c/	2c\	-a	2cc/	2cc\	.	.	.	2c\	-a	.	2c\	-a	.	.	2c\	-a	.	2cc\	-a	.
=3	=3	=3	=3	=3	=3	=3	=3	=3	=3	=3	=3	=3	=3	=3	=3	=3	=3	=3	=3	=3
4.G/	4G\	in	4.g/	4.g\	.	.	.	4G\	in	.	4.G/	in	.	.	4.g\	in	.	4.g/	in	.
.	4G\	.	.	.	.	.	.	4G\	ex-	.	.	.	.	.	.	.	.	.	.	.
8G/	.	ex-	8g/	8g\	.	.	.	.	.	.	8G/	ex-	.	.	8g\	ex-	.	8g/	ex-	.
4G/	4E\	-cel-	4cc/	4g/	.	.	.	4E\	-cel-	.	4G/	-cel-	.	.	4g\	-cel-	.	4cc\	-cel-	.
4c/	4C\	-sis	4ee/	4g/	.	.	.	4C\	-sis	.	4c\	-sis	.	.	4g\	-sis	.	4ee\	-sis	.
*v	*v	*	*	*	*	*	*	*	*	*	*	*	*	*	*	*	*	*	*	*
*	*	*v	*v	*	*	*	*	*	*	*	*	*	*	*	*	*	*	*	*
=4	=4	=4	=4	=4	=4	=4	=4	=4	=4	=4	=4	=4	=4	=4	=4	=4	=4	=4
4G\ 4B	de-	4g\ 4dd	.	.	.	4GG/	de-	.	4B\	de-	.	.	4g\	de-	.	4dd\	de-	.
4G\ 4B	-o	4g\ 4dd	.	.	.	4G\	-o	.	4B\	-o	.	.	4g\	-o	.	4dd\	-o	.
2r	.	2r	.	.	.	2r	.	.	2r	.	.	.	2r	.	.	2r	.	.
=5	=5	=5	=5	=5	=5	=5	=5	=5	=5	=5	=5	=5	=5	=5	=5	=5	=5	=5
*^	*	*^	*	*	*	*	*	*	*	*	*	*	*	*	*	*	*	*
4.d/	4.d\	Glo-	4.dd/	4.d/	.	.	.	4.d\	Glo-	.	4.d\	Glo-	.	.	4.d\	Glo-	.	4.dd\	Glo-	.
8G/	8G\	-ri-	8g/	8g\	.	.	.	8G\	-ri-	.	8G/	-ri-	.	.	8g\	-ri-	.	8g/	-ri-	.
2G/	2G\	-a	2g/	2g\	.	.	.	2G\	-a	.	2G/	-a	.	.	2g\	-a	.	2g/	-a	.
*v	*v	*	*	*	*	*	*	*	*	*	*	*	*	*	*	*	*	*	*	*
*	*	*v	*v	*	*	*	*	*	*	*	*	*	*	*	*	*	*	*	*
!LO:LB:g=original	!	!LO:LB:g=original	!	!	!	!LO:LB:g=original	!	!	!LO:LB:g=original	!	!	!	!LO:LB:g=original	!	!	!LO:LB:g=original	!	!
=6	=6	=6	=6	=6	=6	=6	=6	=6	=6	=6	=6	=6	=6	=6	=6	=6	=6	=6
4.F\ 4.f	Glo-	4.f/ 4.ff	.	.	.	4.f\	Glo-	.	4.f\	Glo-	.	.	4.f\	Glo-	.	4.ff\	Glo-	.
8D\ 8d	-ri-	8d/ 8dd	.	.	.	8d\	-ri-	.	8d\	-ri-	.	.	8d\	-ri-	.	8dd\	-ri-	.
2D\ 2d	-a	2d/ 2dd	.	.	.	2d\	-a	.	2d\	-a	.	.	2d\	-a	.	2dd\	-a	.
=7	=7	=7	=7	=7	=7	=7	=7	=7	=7	=7	=7	=7	=7	=7	=7	=7	=7	=7
4.G\ 4.d	in	4.g/ 4.b	.	.	.	4G\	in	.	4.d\	in	.	.	4.g\	in	.	4.b\	in	.
.	.	.	.	.	.	4G\	ex-	.	.	.	.	.	.	.	.	.	.	.
8G\ 8d	ex-	8g/ 8dd	.	.	.	.	.	.	8d\	ex-	.	.	8g\	ex-	.	8dd\	ex-	.
4G\ 4B	-cel-	4g\ 4gg	.	.	.	4G\	-cel-	.	4B\	-cel-	.	.	4g\	-cel-	.	4gg\	-cel-	.
4G\ 4B	-sis	4g\ 4ff	.	.	.	4G\	-sis	.	4B\	-sis	.	.	4g\	-sis	.	4ff\	-sis	.
=8	=8	=8	=8	=8	=8	=8	=8	=8	=8	=8	=8	=8	=8	=8	=8	=8	=8	=8
4c\	de-	4g\ 4ee	.	.	.	4c\	de-	.	4c\	de-	.	.	4g\	de-	.	4ee\	de-	.
4C\ 4c	-o	4g\ 4ee	.	.	.	4C/	-o	.	4c\	-o	.	.	4g\	-o	.	4ee\	-o	.
2r	.	2r	.	.	.	2r	.	.	2r	.	.	.	2r	.	.	2r	.	.
=9	=9	=9	=9	=9	=9	=9	=9	=9	=9	=9	=9	=9	=9	=9	=9	=9	=9	=9
*^	*	*	*	*	*	*	*	*	*	*	*	*	*	*	*	*	*	*
!	!	!	!	!	!	!LO:DY:b	!	!	!	!LO:TX:a:t=P:problem:zapis dynamiki na środku pięciolinii	!	!	!	!	!	!LO:DY:a	!	!	!LO:DY:a
2.c/	1rc	Et	4r	.	.	p	1r	.	.	2.c\	Et	.	p	4r	.	p	4r	.	p
.	.	.	(4a\ 4ff	Et	.	.	.	.	.	.	.	.	.	(4a\	Et	.	(4ff\	Et	.
.	.	.	4g\ 4ee	.	.	.	.	.	.	.	.	.	.	4g\)	.	.	4ee\)	.	.
4c/	.	in	4f#X\) 4dd#X	in	.	.	.	.	.	4c\	in	.	.	4f#X\	in	.	4dd#X\	in	.
=10	=10	=10	=10	=10	=10	=10	=10	=10	=10	=10	=10	=10	=10	=10	=10	=10	=10	=10	=10
2c/	4r	.	2f#X\ 2dd#X	ter-	.	.	4r	.	.	2c\	ter-	.	.	2f#X\	ter-	.	2dd#X\	ter-	.
!	!	!	!	!	!	!	!	!	!LO:DY:b:t=p.	!	!	!	!	!	!	!	!	!	!
.	2C\	Et	.	.	.	.	2C\	Et	p	.	.	.	.	.	.	.	.	.	.
4c/	.	.	4g\ 4ee	-ra	.	.	.	.	.	4c\	-ra	.	.	4g\	-ra	.	4ee\	-ra	.
4ryy	4C\	in	4r	.	.	.	4C\	in	.	4r	.	.	.	4r	.	.	4r	.	.
!LO:LB:g=original	!	!	!LO:LB:g=original	!	!	!	!	!	!	!LO:LB:g=original	!	!	!	!LO:LB:g=original	!	!	!LO:LB:g=original	!	!
=11	=11	=11	=11	=11	=11	=11	=11	=11	=11	=11	=11	=11	=11	=11	=11	=11	=11	=11	=11
2.c/	4C\	ter-	4r	.	.	.	4C\	ter-	.	2.c\	pax	.	.	4r	.	.	4r	.	.
.	4C\	-ra	(>4f/ 4a	[[Et	pax	.	4C\	-ra	.	.	.	.	.	(4fn\	pax	.	(4a/	pax	.
.	4C\	pax	4e/ 4g	.	.	.	4C\	pax	.	.	.	.	.	4e\)	.	.	4g/)	.	.
4c/	4C\	ho	4d#X/) 4f#X	in	ho	.	4C\	ho-	.	4c\	ho-	.	.	4d#X\	ho-	.	4f#X/	ho-	.
*v	*v	*	*	*	*	*	*	*	*	*	*	*	*	*	*	*	*	*	*
!	!	!	!	!	!	!LO:LB:g=original	!	!	!	!	!	!	!	!	!	!	!	!
=12	=12	=12	=12	=12	=12	=12	=12	=12	=12	=12	=12	=12	=12	=12	=12	=12	=12	=12
4.C/ 4.c	-mi-	4.d#X/ 4.f#X	ter-	.	.	4.C/	-mi-	.	4.c\	-mi-	.	.	4.d#X\	-mi-	.	(4.f#X/	-mi-	.
8C/ 8c	-ni-	8e/ 8g	.	.	.	8C/	-ni-	.	8c\	-ni-	.	.	8e\	-ni-	.	8g/)	-ni-	.
4C/ 4c	-bus	4e/ 4g	-ra]]	.	.	4C/	-bus	.	4c\	-bus	.	.	4e\	-bus	.	4g/	-bus	.
4r	.	4r	.	.	.	4r	.	.	4r	.	.	.	4r	.	.	4r	.	.
=13	=13	=13	=13	=13	=13	=13	=13	=13	=13	=13	=13	=13	=13	=13	=13	=13	=13	=13
*	*	*^	*	*	*	*	*	*	*	*	*	*	*	*	*	*	*	*
!	!	!LO:TX:b:t=dol	!	!	!	!	!	!	!	!	!	!	!	!	!	!	!	!	!
4Fn\ 4B	bo-	4dd/	4g\	.	.	.	4F\	bo-	.	4B\	bo-	.	.	4g\	bo-	.	4dd\	bo-	.
4F\ 4B	-ne	8ee/L	4g\	.	.	.	4F\	-ne	.	4B\	-ne	.	.	4g\	-ne	.	(8ee\L	-ne	.
.	.	8dd/J	.	.	.	.	.	.	.	.	.	.	.	.	.	.	8dd\J)	.	.
4F\ 4B	vo-	8cc/L	4g\	.	.	.	4F\	vo-	.	4B\	vo-	.	.	4g\	vo-	.	(8cc\L	vo-	.
.	.	8b/	.	.	.	.	.	.	.	.	.	.	.	.	.	.	8b\J)	.	.
4F\ 4B	-lum-	8a/	4g\	.	.	.	4F\	-lum-	.	4B\	-lum-	.	.	4g\	-lum-	.	(8a/L	-lum-	.
.	.	8g/J	.	.	.	.	.	.	.	.	.	.	.	.	.	.	8g/J)	.	.
=14	=14	=14	=14	=14	=14	=14	=14	=14	=14	=14	=14	=14	=14	=14	=14	=14	=14	=14	=14
2E\ 2c	-ta-	4.g/	2g\	.	.	.	2E\	-ta-	.	2c\	-ta-	.	.	2g\	-ta-	.	(4.g/	-ta-	.
.	.	8cc/	.	.	.	.	.	.	.	.	.	.	.	.	.	.	8cc/)	.	.
4E\ 4c	-tis	4cc/	4g\	.	.	.	4E\	-tis	.	4c\	-tis	.	.	4g\	-tis	.	4cc/	-tis	.
4E\ 4c	in	4cc/	4g\	.	.	.	4E\	in	.	4c\	in	.	.	4g\	in	.	4cc/	in	.
!	!	!	!	!	!	!	!	!	!	!	!	!	!	!LO:LB:g=original	!	!	!LO:LB:g=original	!	!
=15	=15	=15	=15	=15	=15	=15	=15	=15	=15	=15	=15	=15	=15	=15	=15	=15	=15	=15	=15
2.F\ 2.B	ter-	2dd/	2.g\	.	.	.	2.F\	ter-	.	2.B\	ter-	.	.	2.g\	ter-	.	2dd\	ter-	.
.	.	8cc/L	.	.	.	.	.	.	.	.	.	.	.	.	.	.	(8cc\L	.	.
.	.	8b/	.	.	.	.	.	.	.	.	.	.	.	.	.	.	8b\J)	.	.
4F\ 4B	-ra	8a/	4g\	.	.	.	4F\	-ra	.	4B\	-ra	.	.	4g\	-ra	.	8a/L	-ra	.
.	.	8g/J	.	.	.	.	.	.	.	.	.	.	.	.	.	.	8g/J	.	.
!LO:LB:g=original	!	!LO:LB:g=original	!	!	!	!	!	!	!	!LO:LB:g=original	!	!	!	!	!	!	!	!	!
=16	=16	=16	=16	=16	=16	=16	=16	=16	=16	=16	=16	=16	=16	=16	=16	=16	=16	=16	=16
!	!	!LO:N:vis=2	!	!	!	!	!	!	!	!	!	!	!	!	!	!	!	!	!
2.E\ 2.c	pax	2g/	2.g\	.	.	.	2.E\	pax	.	2.c\	pax	.	.	2.g\	pax	.	(2g/	pax	.
.	.	4cc/	.	.	.	.	.	.	.	.	.	.	.	.	.	.	4cc\)	.	.
4E\ 4c	in	8cc/L	4g\	.	.	.	4E\	in	.	4c\	in	.	.	4g\	in	.	(8cc\L	in	.
.	.	8b/J	.	.	.	.	.	.	.	.	.	.	.	.	.	.	8b\J)	.	.
!	!	!	!	!	!	!	!LO:LB:g=original	!	!	!	!	!	!	!	!	!	!	!	!
=17	=17	=17	=17	=17	=17	=17	=17	=17	=17	=17	=17	=17	=17	=17	=17	=17	=17	=17	=17
*^	*	*	*	*	*	*	*	*	*	*	*	*	*	*	*	*	*	*	*
!	!	!	!LO:N:vis=2	!	!	!	!LO:HP:b	!LO:TX:a:t=P:problem:zapis dynamiki na środku pięciolinii	!	!	!	!	!	!LO:DY:a	!	!	!LO:DY:a	!	!	!LO:DY:a
2.c/	2F\	ter-	2a/	2f\	.	.	<	2F\	ter-	f	2.c\	ter-	.	<	2.f\	ter-	<	2a/	ter-	<
.	2E\	.	8b-X/L	4ryy	.	.	.	2E\	-ra	.	.	.	.	.	.	.	.	(8b-X/L	.	.
.	.	.	8a/J	.	.	.	.	.	.	.	.	.	.	.	.	.	.	8a/J)	.	.
4c#X/	.	-ra	8g#X/L	4gn\	.	.	.	.	.	.	4c#X\	-ra	.	[[	4g\	-ra	[[	8g#X/L	-ra	.
.	.	.	8a/J	.	.	.	.	.	.	.	.	.	.	.	.	.	.	8a/J	.	[[
*v	*v	*	*	*	*	*	*	*	*	*	*	*	*	*	*	*	*	*	*	*
*	*	*v	*v	*	*	*	*	*	*	*	*	*	*	*	*	*	*	*	*
=18	=18	=18	=18	=18	=18	=18	=18	=18	=18	=18	=18	=18	=18	=18	=18	=18	=18	=18
!	!	!	!	!	!LO:DY:b	!	!	!	!	!	!	!	!	!	!LO:DY:a	!	!	!LO:DY:a
4D\ 4d	pax	4f\ 4a 4ff	.	.	[ f	4D\	pax	.	4d\	pax	.	f	4f\	pax	f	4ff\	pax	f
4r	.	4r	.	.	.	4r	.	.	4r	.	.	.	4r	.	.	4r	.	.
4r	.	4r	.	.	.	4r	.	.	4r	.	.	.	4r	.	.	4r	.	.
!	!	!	!	!	!	!	!	!	!	!	!	!LO:DY:a	!	!	!	!	!	!
4D\ 4d	in	4f/ 4a	.	.	.	4D\	in	.	4d\	in	.	>	4f\	in	.	4a/	in	.
!	!	!	!	!	!	!	!	!	!	!	!	!	!	!	!	!LO:LB:g=original	!	!
=19	=19	=19	=19	=19	=19	=19	=19	=19	=19	=19	=19	=19	=19	=19	=19	=19	=19	=19
*	*	*^	*	*	*	*	*	*	*	*	*	*	*	*	*	*	*	*
!	!	!	!	!	!	!LO:HP:b	!	!	!	!	!	!	!	!	!	!	!	!	!LO:DY:a
2.G\ 2.d	ter-	2bn/	2.f\	.	.	>	2.G\	ter-	.	2.d\	ter-	.	.	2.f\	ter-	.	2bn\	ter-	>
.	.	8cc/L	.	.	.	.	.	.	.	.	.	.	.	.	.	.	(8cc\L	.	.
.	.	8b/J	.	.	.	.	.	.	.	.	.	.	.	.	.	.	8b\J)	.	.
4F\ 4d	-ra	8a/L	4f\	.	.	.	4G\	-ra	.	4d\	-ra	.	]]	4f\	-ra	.	8a\L	-ra	.
.	.	8b/J	.	.	.	.	.	.	.	.	.	.	.	.	.	.	8b\J	.	]]
*	*	*v	*v	*	*	*	*	*	*	*	*	*	*	*	*	*	*	*	*
!	!	!	!	!	!	!	!	!	!	!	!	!	!LO:LB:g=original	!	!	!	!	!
=20	=20	=20	=20	=20	=20	=20	=20	=20	=20	=20	=20	=20	=20	=20	=20	=20	=20	=20
4C\ 4c	pax	4e/ 4cc	.	.	]	4C/	pax	.	4c\	pax	.	.	4e\	pax	.	4cc\	pax	.
!	!	!	!	!	!	!	!	!LO:DY:a	!	!	!	!LO:DY:b	!	!	!	!	!	!
4C\ 4c	Lau-	4r	.	.	.	4C/	Lau-	p	4c\	Lau-	.	p	4r	.	.	4r	.	.
!	!	!	!	!	!LO:DY:b	!	!	!	!	!	!	!	!	!	!	!	!	!LO:DY:a
4C\ 4c	-da-	4r	.	.	p	4C/	-da-	.	4c\	-da-	.	.	4r	.	.	4r	.	p
!	!	!	!	!	!	!	!	!	!	!	!	!	!	!	!LO:DY:a	!	!	!
4C\ 4c	-mus	4e/ 4cc	Lau-	.	.	4C/	-mus	.	4c\	-mus	.	.	4e\	Lau-	p	4cc\	Lau-	.
!LO:LB:g=original	!	!LO:LB:g=original	!	!	!	!	!	!	!LO:LB:g=original	!	!	!	!	!	!	!	!	!
=21	=21	=21	=21	=21	=21	=21	=21	=21	=21	=21	=21	=21	=21	=21	=21	=21	=21	=21
2C\ 2c	te	4.f#X/ 4.dd	-da-	.	.	2C/	te	.	2c\	te	.	.	4.f#X\	-da-	.	4.dd\	-da-	.
.	.	8f#/ 8a	-mus	.	.	.	.	.	.	.	.	.	8f#\	-mus	.	8a/	-mus	.
4C\ 4c	be-	4g/ 4b-X	te	.	.	4C/	be-	.	4c\	[[Lau]]-	be	.	4g\	te	.	4b-X/	te	.
4C\ 4c	-ne	8g/ 8b-	be-	.	.	4C/	-ne-	.	4c\	-ne	.	.	8g\	be-	.	8b-/	be-	.
.	.	8fn/ 8b-	-ne	.	.	.	.	.	.	.	.	.	8fn\	-ne-	.	8b-/	-ne-	.
!	!	!	!	!	!	!LO:LB:g=original	!	!	!	!	!	!	!	!	!	!	!	!
=22	=22	=22	=22	=22	=22	=22	=22	=22	=22	=22	=22	=22	=22	=22	=22	=22	=22	=22
*^	*	*	*	*	*	*	*	*	*	*	*	*	*	*	*	*	*	*
4c/	4C\	di-	4e/ 4cc	.	.	.	4C\	-di-	.	4c\	di-	.	.	4e\	-di-	.	4cc/	-di-	.
8c\	8C\	-ci-	8e/ 8cc	.	.	.	8C\	-ci-	.	8c\	-ci-	.	.	8e\	-ci-	.	8cc/	-ci-	.
8c\	8C\	-mus	8e/ 8g	.	.	.	8C\	-mus	.	8c\	-mus	.	.	8e\	-mus	.	8g/	-mus	.
4c\	4F\	te	4f/ 4a	.	.	.	4F\	te	.	4c\	te	.	.	4f\	te	.	4a/	te	.
8f/	4r	a-	8a/ 8cc	.	.	.	4r	.	.	8f\	a-	.	.	8a\	a-	.	8cc/	a-	.
8e/	.	-do-	8g/ 8cc	.	.	.	.	.	.	8e\	-do-	.	.	8g\	-do-	.	8cc/	-do-	.
!	!	!	!	!	!	!	!	!	!	!	!	!	!	!	!	!	!LO:LB:g=original	!	!
=23	=23	=23	=23	=23	=23	=23	=23	=23	=23	=23	=23	=23	=23	=23	=23	=23	=23	=23	=23
*	*	*	*^	*	*	*	*	*	*	*	*	*	*	*	*	*	*	*	*
4d/	1rc	-ra-	8cc/	4f\	.	.	.	1r	.	.	(4d\	-ra-	.	.	(4f\	-ra-	.	8cc\	-ra-	.
.	.	.	4b-X/	.	.	.	.	.	.	.	.	.	.	.	.	.	.	4b-X^/	.	.
4c/	.	.	.	4e\	.	.	.	.	.	.	4c\	.	.	.	4e\	.	.	.	.	.
.	.	.	4a/	.	.	.	.	.	.	.	.	.	.	.	.	.	.	4a^/	.	.
4B-X/	.	.	.	4d\	.	.	.	.	.	.	4B-X\	.	.	.	4d\	.	.	.	.	.
.	.	.	4g/	.	.	.	.	.	.	.	.	.	.	.	.	.	.	4g^/	.	.
4A/	.	.	.	4c\	.	.	.	.	.	.	4A\	.	.	.	4c\)	.	.	.	.	.
!	!	!	!LO:TX:a:t=P:problem:brak ligatury	!	!	!	!	!	!	!	!	!	!	!	!	!	!	!	!	!
.	.	.	8f/	.	.	.	.	.	.	.	.	.	.	.	.	.	.	[8f^/	.	.
!	!	!	!	!	!	!	!	!	!	!	!	!	!	!	!LO:LB:g=original	!	!	!	!	!
=24	=24	=24	=24	=24	=24	=24	=24	=24	=24	=24	=24	=24	=24	=24	=24	=24	=24	=24	=24	=24
4G/	4r	.	8f/	4c\	.	.	.	4r	.	.	4G/)	.	.	.	4c\	.	.	8f/]	.	.
.	.	.	4e^/	.	.	.	.	.	.	.	.	.	.	.	.	.	.	4e^/	-m-	.
4F/	4GG\	-Lau-	.	4B\	mus	.	.	4AA/	Lau-	.	4F/	-mus	.	.	4Bn\	-mus	.	.	.	.
.	.	.	8d/	.	.	.	.	.	.	.	.	.	.	.	.	.	.	8d/	-mus	.
4E/	4C\	-da-	4c/	4c\	te	.	.	4C/	-da-	.	4E/	te	.	.	4c\	te	.	4c/	te	.
4c/	4C\	-mus	4cc/	4e/	lau	.	.	4C/	-mus	.	4c\	Lau-	.	.	4e\	Lau-	.	4cc\	Lau-	.
*	*	*	*v	*v	*	*	*	*	*	*	*	*	*	*	*	*	*	*	*	*
!LO:LB:g=original	!	!	!LO:LB:g=original	!	!	!	!	!	!	!LO:LB:g=original	!	!	!	!	!	!	!	!	!
=25	=25	=25	=25	=25	=25	=25	=25	=25	=25	=25	=25	=25	=25	=25	=25	=25	=25	=25	=25
4c/	2C\	tu	4.f#X/ 4.dd	da-	.	.	2C/	te	.	4c\	-da-	.	.	4.f#X\	-da-	.	4.dd\	-da-	.
4c/	.	.	.	.	.	.	.	.	.	4c\	-mus	.	.	.	.	.	.	.	.
.	.	.	8f#/ 8a	-mus	.	.	.	.	.	.	.	.	.	8f#\	-mus	.	8a/	-mus	.
4c/	4C\	be-	4g/ 4b-X	te	.	.	4C/	be-	.	4c\	te	.	.	4g\	te	.	4b-X/	te	.
8c/	4C\	-ne	8g/ 8b-	be-	.	.	4C/	-ne-	.	8c\	be-	.	.	8g\	be-	.	8b-/	be-	.
8c/	.	.	8fn/ 8b-	-ne	.	.	.	.	.	8c\	-ne-	.	.	8fn\	-ne-	.	8b-/	-ne-	.
*v	*v	*	*	*	*	*	*	*	*	*	*	*	*	*	*	*	*	*	*
=26	=26	=26	=26	=26	=26	=26	=26	=26	=26	=26	=26	=26	=26	=26	=26	=26	=26	=26
4C/ 4c	-di-	4e/ 4cc	.	.	.	4C/	-di-	.	4c\	-di-	.	.	4e\	-di-	.	4cc\	-di-	.
8C/ 8c	-ci-	8e/ 8cc	.	.	.	8C/	-ci-	.	8c\	-ci-	.	.	8e\	-ci-	.	8cc\	-ci-	.
8C/ 8c	-mus	8e/ 8g	.	.	.	8C/	-mus	.	8c\	-mus	.	.	8e\	-mus	.	8g/	-mus	.
4F/ 4c	te	4f/ 4a	.	.	.	4F\	te	.	4c\	te	.	.	4f\	te	.	4a/	te	.
8F/ 8f	a-	8f/ 8a	.	.	.	8F\	a-	.	8f\	[[be-	a-	.	8f\	a-	.	8a/	a-	.
8F/ 8e	-do-	8f/ 8a	.	.	.	8F\	-do-	.	8e\	-ne]]-	-do-	.	8f\	-do-	.	8a/	-do-	.
!	!	!	!	!	!	!LO:LB:g=original	!	!	!	!	!	!	!	!	!	!LO:LB:g=original	!	!
=27	=27	=27	=27	=27	=27	=27	=27	=27	=27	=27	=27	=27	=27	=27	=27	=27	=27	=27
!	!	!	!	!	!LO:HP:b:t=cres	!	!	!	!	!	!	!	!	!	!	!	!	!
2.G/ 2.d	-ra-	2.f/ 2.bn	.	.	<	2.G\	-ra-	.	2.d\	-ra-	.	.	2.f\	-ra-	.	2.bn\	-ra-	.
4G\ 4d	-mus	4f/ 4b	.	.	.	4G\	-mus	.	4d\	-mus	.	.	4f\	-mus	.	4b\	-mus	.
!	!	!	!	!	!	!	!	!	!	!	!	!	!LO:LB:g=original	!	!	!	!	!
=28	=28	=28	=28	=28	=28	=28	=28	=28	=28	=28	=28	=28	=28	=28	=28	=28	=28	=28
*^	*	*^	*	*	*	*	*	*	*	*	*	*	*	*	*	*	*	*
4c/	4c\	te	4cc/	4e\	.	.	.	4c\	te	.	4c\	te	.	.	4e\	te	.	4cc\	te	.
4r	4G\	glo-	4r	4ryy	.	.	.	4G\	glo-	.	4r	.	.	.	4r	.	.	4r	.	.
4r	4E\	-ri-	4r	4ryy	.	.	.	4E\	-ri-	.	4r	.	.	.	4r	.	.	4r	.	.
4G/	4C\	-fi	4e/	4e\	glo	.	.	4C\	-fi-	.	4G/	glo-	.	.	4e\	glo-	.	4e/	glo-	.
*	*	*	*v	*v	*	*	*	*	*	*	*	*	*	*	*	*	*	*	*	*
!LO:LB:g=original	!	!	!LO:PB:g=original	!	!	!	!	!	!	!LO:LB:g=original	!	!	!	!	!	!	!	!	!
=29	=29	=29	=29	=29	=29	=29	=29	=29	=29	=29	=29	=29	=29	=29	=29	=29	=29	=29	=29
*	*	*	*	*above	*	*	*	*	*	*	*	*	*	*	*	*	*	*	*
!	!	!	!LO:TX:a:t=P:problem:w tt.29-33 tekst nad pięciolinią	!	!	!	!	!	!	!	!	!	!	!	!	!	!	!	!
4B/	2GG\	ca-	4d/ 4f	ri-	.	.	2GG/	-ca-	.	4B\	-ri-	.	.	4d\	-ri-	.	4f/	-ri-	.
4B/	.	.	4d/ 4f	-fi-	.	.	.	.	.	4B\	-fi-	.	.	4d\	-fi-	.	4f/	-fi-	.
4B/	2G\	-mus	4d/ 4f	-ca-	.	.	2G\	-mus	.	4B\	-ca-	.	.	4d\	-ca-	.	4f/	-ca-	.
4B/	.	.	4d/ 4f	-mus	.	.	.	.	.	4B\	-mus	.	.	4d\	-mus	.	4f/	-mus	.
=30	=30	=30	=30	=30	=30	=30	=30	=30	=30	=30	=30	=30	=30	=30	=30	=30	=30	=30	=30
2c/	4C\	te	2.c/ 2.e	te	.	.	4C\	te	.	2c\	te	.	.	2c\	te	.	2e/	te	.
!	!	!	!	!	!	!	!	!	!LO:DY:a	!	!	!	!	!	!	!	!	!	!
.	4G\	glo-	.	.	.	.	4G\	glo-	f	.	.	.	.	.	.	.	.	.	.
4r	4E\	-ri-	.	.	.	.	4E\	-ri-	.	4r	.	.	.	4r	.	.	4r	.	.
!	!	!	!	!	!	!LO:DY:b	!	!	!	!	!	!	!LO:DY:b	!	!	!LO:DY:a	!	!	!
4c/	4C\	-fi-	4e/ 4g	glo-	.	f	4C\	-fi-	.	4G/	glo-	.	f	4e\	glo-	f	4g/	glo-	.
=31	=31	=31	=31	=31	=31	=31	=31	=31	=31	=31	=31	=31	=31	=31	=31	=31	=31	=31	=31
!	!	!	!	!	!	!	!	!	!	!	!	!	!	!	!	!	!	!	!LO:DY:a
4d/	2G\	-ca-	4f/ 4b	-ri-	.	.	2GG/	-ca-	.	4d\	-ri-	.	.	4f\	-ri-	.	4b\	-ri-	f
4d/	.	.	4f/ 4b	-fi-	.	.	.	.	.	4d\	-fi-	.	.	4f\	-fi-	.	4b\	-fi-	.
4d/	2GG\	-mus	4f/ 4b	-ca-	.	.	2G\	-mus	.	4d\	-ca-	.	.	4f\	-ca-	.	4b\	-ca-	.
4d/	.	.	4f/ 4b	-mus	.	.	.	.	.	4d\	-mus	.	.	4f\	-mus	.	4b\	-mus	.
!	!	!	!	!	!	!	!LO:LB:g=original	!	!	!	!	!	!	!	!	!	!LO:LB:g=original	!	!
=32	=32	=32	=32	=32	=32	=32	=32	=32	=32	=32	=32	=32	=32	=32	=32	=32	=32	=32	=32
4c/	4C\	te	4e/ 4cc	te	.	.	4C/	te	.	4c\	te	.	.	4e\	te	.	4cc\	te	.
!	!	!	!	!	!	!	!	!	!LO:DY:a	!	!	!	!	!	!	!	!	!	!
4r	4C\	gra-	4r	.	.	.	4C/	gra-	p	4r	.	.	.	4r	.	.	4r	.	.
2r	4C\	-ti-	2r	.	.	.	4C/	-ti-	.	2r	.	.	.	2r	.	.	2r	.	.
.	4C\	-as	.	.	.	.	4C/	-as	.	.	.	.	.	.	.	.	.	.	.
!	!	!	!	!	!	!	!	!	!	!	!	!	!	!LO:LB:g=original	!	!	!	!	!
=33	=33	=33	=33	=33	=33	=33	=33	=33	=33	=33	=33	=33	=33	=33	=33	=33	=33	=33	=33
!	!	!	!	!	!	!LO:DY:b	!	!	!	!	!	!	!LO:DY:b	!	!	!	!	!	!LO:DY:b
4.G/	2C\	a-	4.e/ 4.b-X	gra-	.	p	2C\	a-	.	4.G/	Gra-	.	p	4.e\	Gra-	p	4.b-X/	gra-	p
8A/	.	.	8e/ 8a	-ti-	.	.	.	.	.	8A/	-ti-	.	.	8e\	-ti-	.	8a/	-ti-	.
4B-X/	4C\	-gi-	4e/ 4g	-as	.	.	4C\	-gi-	.	4B-X\	-as	.	.	4e\	-as	.	4g/	-as	.
4r	4C\	-mus	4r	.	.	.	4C\	-mus	.	4r	.	.	.	4r	.	.	4r	.	.
!LO:LB:g=original	!	!	!LO:LB:g=original	!	!	!	!	!	!	!LO:LB:g=original	!	!	!	!	!	!	!	!	!
=34	=34	=34	=34	=34	=34	=34	=34	=34	=34	=34	=34	=34	=34	=34	=34	=34	=34	=34	=34
*	*	*	*	*below	*	*	*	*	*	*	*	*	*	*	*	*	*	*	*
4.F/	2C\	ti-	4.c/ 4.a	a-	.	.	2C\	ti-	.	4.F/	a-	.	.	4.c\	a-	.	4.a/	a-	.
8G/	.	.	8c/ 8g	-gi-	.	.	.	.	.	8G/	-gi-	.	.	8c\	-gi-	.	8g/	-gi-	.
4A/	2C\	-bi	4c/ 4f	-mus	.	.	2C\	-bi	.	4A/	-mus	.	.	4c\	-mus	.	4f/	-mus	.
8c/	.	.	8c/ 8e	ti-	.	.	.	.	.	8c\	ti-	.	.	8c\	ti-	.	8e/	ti-	.
8Bn/	.	.	8d/ 8f	-bi	.	.	.	.	.	8Bn\	-bi	.	.	8d\	-bi	.	8f/	-bi	.
*v	*v	*	*	*	*	*	*	*	*	*	*	*	*	*	*	*	*	*	*
=35	=35	=35	=35	=35	=35	=35	=35	=35	=35	=35	=35	=35	=35	=35	=35	=35	=35	=35
4C\ 4B-X	pro-	4e/ 4g	.	.	.	4C/	pro-	.	4B-X/	pro-	.	.	4e\	pro-	.	4g/	pro-	.
4C\ 4A	-pter	4f/ 4a	.	.	.	4C/	-pter	.	4A/	-pter	.	.	4f\	-pter	.	4a/	-pter	.
4C\ 4G	ma-	4g/ 4b-X	.	.	.	4C/	ma-	.	4G/	ma-	.	.	4g\	ma-	.	4b-X/	ma-	.
4C\ 4c	-gnam	4g#X/ 4bn	.	.	.	4C/	-gnam	.	4c\	-gnam	.	.	4g#X\	-gnam	.	4bn/	-gnam	.
!	!	!	!	!	!	!LO:LB:g=original	!	!	!	!	!	!	!	!	!	!LO:LB:g=original	!	!
=36	=36	=36	=36	=36	=36	=36	=36	=36	=36	=36	=36	=36	=36	=36	=36	=36	=36	=36
4F\ 4c	glo-	4a/ 4cc	.	.	.	4F\	glo-	.	4c\	glo-	.	.	4a\	glo-	.	4cc\	glo-	.
8F\ 8c	-ri-	8b-X/ 8dd	.	.	.	8F\	-ri-	.	8c\	-ri-	.	.	8b-X\	-ri-	.	8dd\	-ri-	.
8F\ 8c	-am	8a/ 8cc	.	.	.	8F\	-am	.	8c\	-am	.	.	8a\	-am	.	8cc\	-am	.
4E\ 4c	tu-	4g/ 4b-	.	.	.	4E\	tu-	.	4c\	tu-	.	.	4g\	tu-	.	4b-X\	tu-	.
4F\ 4c	-am	4f/ 4a	.	.	.	4F\	-am	.	4c\	-am	.	.	4f\	-am	.	4a\	-am	.
!	!	!	!	!	!	!	!	!	!	!	!	!	!LO:LB:g=original	!	!	!	!	!
=37	=37	=37	=37	=37	=37	=37	=37	=37	=37	=37	=37	=37	=37	=37	=37	=37	=37	=37
*^	*	*	*	*	*	*	*	*	*	*	*	*	*	*	*	*	*	*
4.G/	2C\	Do-	4.e/ 4.b-X	.	.	.	2C/	Do-	.	4.G/	Do-	.	.	4.e\	Do-	.	4.b-X\	Do-	.
8A/	.	.	8e/ 8a	.	.	.	.	.	.	8A/	-mi-	.	.	8e\	-mi-	.	8a\	-mi-	.
4B-X/	4C\	-mi-	4e/ 4g	.	.	.	4C/	-mi-	.	4B-X/	-ne	.	.	4e\	-ne	.	4g/	-ne	.
4r	4C\	-ne	4r	.	.	.	4C/	-ne	.	4r	.	.	.	4r	.	.	4r	.	.
!	!	!	!	!	!	!	!	!	!	!LO:TX:a:t=P:problem:po t.37 wykreślony jeden takt	!	!	!	!	!	!	!	!	!
!LO:LB:g=original	!	!	!LO:LB:g=original	!	!	!	!	!	!	!LO:LB:g=original	!	!	!	!	!	!	!	!	!
=38	=38	=38	=38	=38	=38	=38	=38	=38	=38	=38	=38	=38	=38	=38	=38	=38	=38	=38	=38
4.F/	4.F\	Do-	4.c/ 4.a	.	.	.	4F\	Do-	.	4.F/	Do-	.	.	4.c\	Do-	.	4.a/	Do-	.
.	.	.	.	.	.	.	4F\	-mi-	.	.	.	.	.	.	.	.	.	.	.
8G/	8F\	-mi-	8c/ 8g	.	.	.	.	.	.	8G/	-mi-	.	.	8c\	-mi-	.	8g/	-mi-	.
4A/	4F\	-ne	4c/ 4f	.	.	.	4F\	-ne	.	4A/	-ne	.	.	4c\	-ne	.	4f/	-ne	.
4A/	4F\	Rex	4c/ 4f	.	.	.	4F\	Rex	.	4A/	Rex	.	.	4c\	Rex	.	4f/	rex	.
=39	=39	=39	=39	=39	=39	=39	=39	=39	=39	=39	=39	=39	=39	=39	=39	=39	=39	=39	=39
4G\	4D\	ce-	4Bn/ 4f	.	.	.	4D\	ce-	.	4G/	ce-	.	.	4Bn/	ce-	.	4f/	ce-	.
4F\	4D\	-le-	4B/ 4a	.	.	.	4D\	-le-	.	4F/	-le-	.	.	4B/	-le-	.	4a/	-les-	.
4D/	4D\	-stis	4B/ 4g	.	.	.	4D\	-stis	.	4D/	-stis	.	.	4B/	-stis	.	4g/	-tis	.
4G\	4D\	Rex	4B/ 4f	.	.	.	4D\	Rex	.	4G/	Rex	.	.	4B/	Rex	.	4f/	Rex	.
!	!	!	!	!	!	!	!LO:LB:g=original	!	!	!	!	!	!	!	!	!	!LO:LB:g=original	!	!
=40	=40	=40	=40	=40	=40	=40	=40	=40	=40	=40	=40	=40	=40	=40	=40	=40	=40	=40	=40
*	*	*	*^	*	*	*	*	*	*	*	*	*	*	*	*	*	*	*	*
4G\	4C\	ce-	4e/	4c/	.	.	.	4C/	ce-	.	4G/	ce-	.	.	4c/	ce-	.	4e/	ce-	.
4F\	4C\	-le-	4d/	4B/	.	.	.	4C/	-le-	.	4F/	-le-	.	.	4B/	-le-	.	4d/	-le-	.
4E\	4C\	-stis	4c/	4c\	.	.	.	4C/	-stis	.	4E/	-stis	.	.	4c/	-stis	.	4c/	-stis	.
!	!	!	!	!	!	!	!	!LO:TX:a:t=P:problem:zapis dynamiki na środku pięciolinii	!	!	!	!	!	!	!	!	!	!	!	!
8C/	8C\	De-	8c/	8c\	.	.	.	8C/	De-	f	8C/	De-	.	.	8c/	De-	.	8c/	De-	.
8E/	8E\	-us	8e/	8e\	.	.	.	8E/	-us	.	8E/	-us	.	.	8e/	-us	.	8e/	-us	.
!	!	!	!	!	!	!	!	!	!	!	!LO:LB:g=original	!	!	!	!LO:LB:g=original	!	!	!	!	!
=41	=41	=41	=41	=41	=41	=41	=41	=41	=41	=41	=41	=41	=41	=41	=41	=41	=41	=41	=41	=41
!	!	!	!	!	!	!	!	!	!	!	!	!	!	!LO:DY:b	!	!	!	!	!	!
4G/	4G\	pa-	4g/	4g\	.	.	.	4G\	Pa-	.	4G/	Pa-	.	f	4g\	Pa-	.	4g/	Pa-	.
8e\	8G\	-ter	8g/	8g\	.	.	.	8G\	-ter	.	8e\	-ter	.	.	8g\	-ter	.	8g/	-ter	.
8e\	8G\	om-	8g/	8g\	.	.	.	8G\	om-	.	8e\	om-	.	.	8g\	om-	.	8g/	om-	.
4d#X\	4G\	-ni-	4a/	4f#X/	.	.	.	4G\	-ni-	.	4d#X\	-ni-	.	.	4f#X\	-ni-	.	4a/	-ni-	.
4dn\	4G\	-po-	4b/	4fn/	.	.	.	4G\	-po-	.	4dn\	-po-	.	.	4fn\	-po-	.	4b/	-po-	.
*	*	*	*v	*v	*	*	*	*	*	*	*	*	*	*	*	*	*	*	*	*
!LO:LB:g=original	!	!	!LO:LB:g=original	!	!	!	!	!	!	!	!	!	!	!	!	!	!	!	!
=42	=42	=42	=42	=42	=42	=42	=42	=42	=42	=42	=42	=42	=42	=42	=42	=42	=42	=42	=42
4c/	4C\	-tens	4e/ 4cc	.	.	.	4C\	-tens	.	4c\	-tens	.	.	4e\	-tens	.	4cc\	-tens	.
4r	4G\	Do-	4r	.	.	.	4G\	Do-	.	4r	.	.	.	4r	.	.	4r	.	.
2r	4E\	-mi-	2r	.	.	.	4E\	-mi-	.	2r	.	.	.	2r	.	.	2r	.	.
.	4C\	-ne	.	.	.	.	4C\	-ne	.	.	.	.	.	.	.	.	.	.	.
*v	*v	*	*	*	*	*	*	*	*	*	*	*	*	*	*	*	*	*	*
!	!	!	!	!	!	!	!	!	!LO:PB:g=original	!	!	!	!	!	!	!LO:LB:g=original	!	!
=43	=43	=43	=43	=43	=43	=43	=43	=43	=43	=43	=43	=43	=43	=43	=43	=43	=43	=43
!	!	!	!	!	!LO:DY:b	!	!	!	!	!	!	!	!	!	!LO:DY:b	!	!	!LO:DY:b
4GG/ 4G	Pa-	4e/ 4g	.	.	f	4GG/	Pa-	.	4G/	Pa-	.	.	4e\	Pa-	f	4g/	Pa-	f
8C/ 8c	-ter	8e/ 8f#X	.	.	.	8C/	-ter	.	8c\	-ter	.	.	8e\	-ter	.	8f#X/	-ter	.
8E/ 8c	om-	8e/ 8g	.	.	.	8E/	om-	.	8c\	om-	.	.	8e\	om-	.	8g/	om-	.
4G/ 4c	-ni-	4g/ 4ee	.	.	.	4G\	-ni-	.	4c\	-ni-	.	.	4g\	-ni-	.	4ee\	-ni-	.
4GG/ 4B	-po-	4fn/ 4dd	.	.	.	4G\	-po-	.	4B\	-po-	.	.	4f\	-po-	.	4dd\	-po-	.
!	!	!	!	!	!	!LO:LB:g=original	!	!	!	!	!	!	!	!	!	!	!	!
=44	=44	=44	=44	=44	=44	=44	=44	=44	=44	=44	=44	=44	=44	=44	=44	=44	=44	=44
*^	*	*	*	*	*	*	*	*	*	*	*	*	*	*	*	*	*	*
4c/	4C/	-tens	4e/ 4cc	.	.	.	4C\	-tens	.	4c\	-tens	.	.	4e\	-tens	.	4cc\	-tens	.
4c/	4r	.	4r	.	.	.	4r	.	.	4c\	Do-	.	.	4r	.	.	4r	.	.
4c/	2r	.	2r	.	.	.	2r	.	.	4c\	-mi-	.	.	2r	.	.	2r	.	.
4c/	.	.	.	.	.	.	.	.	.	4c\	-ne	.	.	.	.	.	.	.	.
!	!	!	!	!	!	!	!	!	!	!	!	!	!	!LO:PB:g=original	!	!	!LO:PB:g=original	!	!
=45	=45	=45	=45	=45	=45	=45	=45	=45	=45	=45	=45	=45	=45	=45	=45	=45	=45	=45	=45
*	*	*	*	*above	*	*	*	*	*	*	*	*	*	*	*	*	*	*	*
*	*	*	*^	*	*	*	*	*	*	*	*	*	*	*	*	*	*	*	*
!	!	!	!	!LO:TX:a:t=P:problem:w tt.45-46 tekst nad pięciolinią	!	!	!LO:DY:b	!	!	!LO:DY:b	!	!	!	!	!	!	!	!	!	!
4B\	4G\	Do-	4d/	4d\	Do-	.	p	4G\	Do-	p	4B\	Do-	.	.	4d\	Do-	.	4d/	Do-	.
8B\	8G\	-mi-	8d/	8d\	-mi-	.	.	8G\	-mi-	.	8B\	-mi-	.	.	8d\	-mi-	.	8d/	-mi-	.
8B\	8G\	-ne	8d/	8d\	-ne	.	.	8G\	-ne	.	8B\	-ne	.	.	8d\	-ne	.	8d/	-ne	.
4c#X/	8A\	Fi-	4e/	4e\	Fi-	.	.	8A\	Fi-	.	4c#X\	Fi-	.	.	4e\	Fi-	.	4e/	Fi-	.
.	8G\	-li	.	.	.	.	.	8G\	-li	.	.	.	.	.	.	.	.	.	.	.
4c#/	8F\	u-	4e/	4e\	-li	.	.	8F\	u-	.	4cn\	-li	.	.	4e\	-li	.	4e/	-li	.
.	8E\	-ni-	.	.	.	.	.	8E\	-ni-	.	.	.	.	.	.	.	.	.	.	.
*	*	*	*v	*v	*	*	*	*	*	*	*	*	*	*	*	*	*	*	*	*
!LO:LB:g=original	!	!	!LO:LB:g=original	!	!	!	!	!	!	!	!	!	!	!	!	!	!	!	!
=46	=46	=46	=46	=46	=46	=46	=46	=46	=46	=46	=46	=46	=46	=46	=46	=46	=46	=46	=46
8d/	4D\	-ge-	8d/ 8f	u-	.	.	4D\	-ge-	.	8d\	u-	.	.	8d\	u-	.	8f/	u-	.
8d/	.	.	8d/ 8f	-ni-	.	.	.	.	.	8d\	-ni-	.	.	8d\	-ni-	.	8f/	-ni-	.
8d/	8D\	-ni-	8d/ 8f	-ge-	.	.	8D\	-ni-	.	8d\	-ge-	.	.	8d\	-ge-	.	8f/	-ge-	.
8d/	8D\	-te	8d/ 8f	-ni-	.	.	8D\	-te	.	8d\	-ni-	.	.	8d\	-ni-	.	8f/	-ni-	.
!	!	!	!	!	!	!	!	!	!	!LO:LB:g=original	!	!	!	!	!	!	!	!	!
8c/L	4C\	Je-	4e/ 4g	-te	.	.	4C\	Je-	.	(8c\L	-te	.	.	4e\	-te	.	4g/	-te	.
8B-X/J	.	.	.	.	.	.	.	.	.	8B-X\J)	.	.	.	.	.	.	.	.	.
8A/	4C\	-su	8e/ 8g	Je-	.	.	4C\	-su	.	8A\	Je-	.	.	8e\	Je-	.	8g/	Je-	.
8G/	.	.	8e/ 8g	-su	.	.	.	.	.	8G\	-zu	.	.	8e\	-su	.	8g/	-su	.
*v	*v	*	*	*	*	*	*	*	*	*	*	*	*	*	*	*	*	*	*
!	!	!	!	!	!	!LO:LB:g=original	!	!	!	!	!	!	!	!	!	!	!	!
*	*	*	*	*below	*	*	*	*	*	*	*	*	*	*	*	*	*	*
=47	=47	=47	=47	=47	=47	=47	=47	=47	=47	=47	=47	=47	=47	=47	=47	=47	=47	=47
*	*	*^	*	*	*	*	*	*	*	*	*	*	*	*	*	*	*	*
4F\ 4c	Chri-	4a/	4f\	.	.	.	4F\	Chri-	.	4c\	Chri-	.	.	4f\	Chri-	.	4a/	Chri-	.
4F\ 4A	-ste	4a/	4f\	.	.	.	4F\	-ste	.	4A\	-ste	.	.	4f\	-ste	.	4a/	-ste	.
4E\ 4G#X	Do-	4bn/	8e\L	.	.	.	4E\	Do-	.	4G#X/	Do-	.	.	(8e\L	Do-	.	4bn\	Do-	.
.	.	.	8f\J	.	.	.	.	.	.	.	.	.	.	8f\J)	.	.	.	.	.
8E\ 8G#	-mi-	8b/	8e/	.	.	.	8E\	-mi-	.	8G#/	-mi-	.	.	8e\	-mi-	.	8b\	-mi-	.
8E\ 8G#	-ne	8b/	8d/	.	.	.	8E\	-ne	.	8G#/	-ne	.	.	8e\	-ne	.	8b\	-ne	.
!	!	!	!	!	!	!	!	!	!	!	!	!	!	!LO:LB:g=original	!	!	!LO:LB:g=original	!	!
=48	=48	=48	=48	=48	=48	=48	=48	=48	=48	=48	=48	=48	=48	=48	=48	=48	=48	=48	=48
*^	*	*	*	*	*	*	*	*	*	*	*	*	*	*	*	*	*	*	*
4A/	4A\	de-	4cc/	4c/	.	.	.	4A\	de-	.	4A\	de-	.	.	4c\	De-	.	4cc\	de-	.
4c\	4A\	-us	4a/	4e/	.	.	.	4A\	-us	.	4c\	-us	.	.	4e\	-us	.	4a\	-us	.
4B\	4G\	A-	4dd/	8g\L	.	.	.	4G\	A-	.	4B\	A-	.	.	(8g\L	A-	.	4dd\	A-	.
.	.	.	.	8a\J	.	.	.	.	.	.	.	.	.	.	8a\J)	.	.	.	.	.
4B\	4G\	-gnus	4dd/	8g\L	.	.	.	4G\	-gnus	.	4B\	-gnus	.	.	(8g\L	-gnus	.	4dd\	-gnus	.
.	.	.	.	8f\J	.	.	.	.	.	.	.	.	.	.	8f\J)	.	.	.	.	.
*v	*v	*	*	*	*	*	*	*	*	*	*	*	*	*	*	*	*	*	*	*
!LO:LB:g=original	!	!LO:LB:g=original	!	!	!	!	!	!	!	!	!	!	!	!	!	!	!	!	!
=49	=49	=49	=49	=49	=49	=49	=49	=49	=49	=49	=49	=49	=49	=49	=49	=49	=49	=49	=49
4C\ 4G	de-	4ee/	4e/	.	.	.	4C\	de-	.	4G\	de-	.	.	4e\	de-	.	4ee\	de-	.
4C\ 4c	-i	4cc/	4e/	.	.	.	4C\	-i	.	4c\	-i	.	.	4e\	-i	.	4cc\	-i	.
4D\ 4A	Fi-	8cc/L	4f#X\	.	.	<	4D\	Fi-	.	4A\	Fi-	.	.	4f#X\	Fi-	.	(8cc\L	Fi-	.
.	.	8dd/J	.	.	.	.	.	.	.	.	.	.	.	.	.	.	8dd\J)	.	.
8D\ 8A	-li-	8ee/	8f#/	.	.	.	8D\	-li-	.	8A\	-li-	.	.	8f#\	-li-	.	8ee\	-li-	.
8D\ 8c	-us	8ff#X/	8a/	.	.	.	8D\	-us	.	8c\	-us	.	.	8a\	-us	.	8ff#X\	-us	.
*	*	*v	*v	*	*	*	*	*	*	*	*	*	*	*	*	*	*	*	*
!	!	!	!	!	!	!	!	!	!LO:LB:g=original	!	!	!	!	!	!	!	!	!
=50	=50	=50	=50	=50	=50	=50	=50	=50	=50	=50	=50	=50	=50	=50	=50	=50	=50	=50
!	!	!	!	!	!LO:DY:b	!	!	!	!LO:TX:a:t=P:problem:zapis dynamiki na środku pięciolinii	!	!	!	!LO:TX:a:t=P:problem:zapis dynamiki na środku pięciolinii	!	!	!	!	!
(4G\ 4B	Pa-	1g 1gg	.	.	[ f	(4G\	Pa-	.	(4B\	Pa-	.	f	[1g	Pa-	f	1gg	Pa-	f
4c\ 4e	.	.	.	.	.	4c\	.	.	4e\	.	.	.	.	.	.	.	.	.
4B\ 4d	.	.	.	.	.	4B\	.	.	4d\	.	.	.	.	.	.	.	.	.
4A\ 4c	.	.	.	.	.	4A\)	.	.	4c\	.	.	.	.	.	.	.	.	.
!	!	!	!	!	!	!LO:LB:g=original	!	!	!	!	!	!	!	!	!	!	!	!
=51	=51	=51	=51	=51	=51	=51	=51	=51	=51	=51	=51	=51	=51	=51	=51	=51	=51	=51
!	!	!	!	!	!LO:DY:b	!	!	!	!	!	!	!	!	!	!	!	!	!
4G\ 4B	.	1g	.	.	p	(4G\	.	.	4B\	.	.	.	1g]	.	.	1g	.	.
4E\ 4c	.	.	.	.	.	4E\	.	.	4c\	.	.	.	.	.	.	.	.	.
4D\ 4B	.	.	.	.	.	4D\	.	.	4B\	.	.	.	.	.	.	.	.	.
4C\) 4A	.	.	.	.	.	4C\)	.	.	4A\)	.	.	.	.	.	.	.	.	.
!	!	!	!	!	!	!	!	!	!	!	!	!	!LO:LB:g=original	!	!	!	!	!
=52	=52	=52	=52	=52	=52	=52	=52	=52	=52	=52	=52	=52	=52	=52	=52	=52	=52	=52
*^	*	*	*	*	*	*	*	*	*	*	*	*	*	*	*	*	*	*
4G/	4BB\	tris	4g/	.	.	.	4BB/	-tris	.	4G/	-tris	.	.	4g\	-tris	.	4g/	-tris	.
4r	4GG\	Qui	4r	.	.	.	4GG/	Qui	.	4r	.	.	.	4r	.	.	4r	.	.
4r	4G\	tol-	4r	.	.	.	4G\	tol-	.	4r	.	.	.	4r	.	.	4r	.	.
!	!	!	!LO:TX:b:t=Qui	!	!	!	!	!	!	!	!	!	!	!	!	!	!	!	!
4G/	8G\	-lis	4g/	.	.	.	8G\	-lis	.	4G/	Qui	.	p	4g\	Qui	.	4g/	Qui	.
.	8G\	pe	.	.	.	.	8G\	Qui	.	.	.	.	.	.	.	.	.	.	.
*v	*v	*	*	*	*	*	*	*	*	*	*	*	*	*	*	*	*	*	*
!LO:PB:g=original	!	!LO:PB:g=original	!	!	!	!	!	!	!	!	!	!	!	!	!	!LO:LB:g=original	!	!
=53	=53	=53	=53	=53	=53	=53	=53	=53	=53	=53	=53	=53	=53	=53	=53	=53	=53	=53
!	!	!	!	!	!LO:DY:b	!	!	!	!LO:TX:a:t=P:problem:zapis dynamiki na środku pięciolinii	!	!	!	!LO:TX:a:t=P:problem:zapis dynamiki na środku pięciolinii	!	!	!	!	!LO:DY:b
4C\ 4c	tol-	4g/ 4ee-X	.	.	p	4C/	tol-	.	4c\	tol-	.	.	4g\	tol-	p	4ee-X\	tol-	p
8E-X\ 8c	-lis	8g/ 8dd	.	.	.	8E-X\	-lis	.	8c\	-lis	.	.	8g\	-lis	.	8dd\	-lis	.
8E-\ 8c	pec-	8g/ 8cc	.	.	.	8E-\	pec-	.	8c\	pec-	.	.	8g\	pec-	.	8cc\	pec-	.
4F\ 4d	-ca-	4g/ 4bn	.	.	.	4F\	-ca-	.	4d\	-ca-	.	.	4g\	-ca-	.	4bn\	-ca-	.
4D\ 4Bn	-ta	4g/ 4ff	.	.	.	4D\	-ta	.	4Bn\	-ta	.	.	4g\	-ta	.	4ff\	-ta	.
!	!	!	!	!	!	!	!	!	!LO:LB:g=original	!	!	!	!	!	!	!	!	!
=54	=54	=54	=54	=54	=54	=54	=54	=54	=54	=54	=54	=54	=54	=54	=54	=54	=54	=54
4C\ 4c	mun-	4g/ 4ff	.	.	.	4C\	mun-	.	4c\	mun-	.	.	4g\	mun-	.	4ff\	mun-	.
4C\ 4G	-di	4g/ 4ee-X	.	.	.	4C\	-di	.	4G\	-di	.	.	4g\	-di	.	4ee-X\	-di	.
4C\ 4c	mi-	4g/ 4ee-	.	.	.	4C\	mi-	.	4c\	mi-	.	.	4g\	mi-	.	4ee-\	mi-	.
4C\ 4c	-se-	4g/ 4ee-	.	.	.	4C\	-se-	.	4c\	-se-	.	.	4g\	-se-	.	4ee-\	-se-	.
!	!	!	!	!	!	!LO:PB:g=original	!	!	!	!	!	!	!	!	!	!	!	!
=55	=55	=55	=55	=55	=55	=55	=55	=55	=55	=55	=55	=55	=55	=55	=55	=55	=55	=55
*	*	*^	*	*	*	*	*	*	*	*	*	*	*	*	*	*	*	*
2F#X\ 2c	-re-	4.ee-X/	2a\	.	.	.	2.F#X\	-re-	.	(2c\	-re-	.	.	2.a\	-re-	.	4.ee-X\	-re-	.
.	.	(<16ff/LL	.	.	.	.	.	.	.	.	.	.	.	.	.	.	(16ff\LL	.	.
.	.	16ee-/JJ)	.	.	.	.	.	.	.	.	.	.	.	.	.	.	16ee-\JJ)	.	.
4F#\ 4d	.	4dd/	4a/	.	.	.	.	.	.	4d\)	.	.	.	.	.	.	4dd\	.	.
4F#\ 4e-X	-re	4cc/	4a/	.	.	.	4F#\	-re	.	4e-X\	-re	.	.	4a\	-re	.	4cc\	-re	.
!	!	!	!	!	!	!	!	!	!	!	!	!	!	!LO:LB:g=original	!	!	!	!	!
=56	=56	=56	=56	=56	=56	=56	=56	=56	=56	=56	=56	=56	=56	=56	=56	=56	=56	=56	=56
*^	*	*	*	*	*	*	*	*	*	*	*	*	*	*	*	*	*	*	*
4d\	4G\	no-	4bn/	4g/	.	.	.	4G\	no-	.	4d\	no-	.	.	4g\	no-	.	4bn\	no-	.
4B\	4G\	-bis	4g/	4g/	.	.	.	4G\	-bis	.	4B\	-bis	.	.	4g\	-bis	.	4g/	-bis	.
4r	4ryy	.	4r	4r	.	.	.	4r	.	.	4r	.	.	.	4r	.	.	4r	.	.
4G/	4G\	Qui	4g/	4g\	.	.	.	4G\	Qui	.	4G/	Qui	.	.	4g\	Qui	.	4g/	Qui	.
*v	*v	*	*	*	*	*	*	*	*	*	*	*	*	*	*	*	*	*	*	*
*	*	*v	*v	*	*	*	*	*	*	*	*	*	*	*	*	*	*	*	*
!LO:LB:g=original	!	!LO:LB:g=original	!	!	!	!	!	!	!	!	!	!	!	!	!	!LO:LB:g=original	!	!
=57	=57	=57	=57	=57	=57	=57	=57	=57	=57	=57	=57	=57	=57	=57	=57	=57	=57	=57
!	!	!	!	!	!	!	!	!LO:DY:a	!	!	!	!	!	!	!	!	!	!
4C\ 4c	tol-	4g\ 4ee-X	.	.	.	4C/	tol-	p	4c\	tol-	.	.	4g\	tol-	.	4ee-X\	tol-	.
8E-X\ 8c	-lis	8g\ 8dd	.	.	.	8E-X\	-lis	.	8c\	-lis	.	.	8g\	-lis	.	8dd\	-lis	.
8E-\ 8c	pec-	8g\ 8cc	.	.	.	8E-\	pec-	.	8c\	pec-	.	.	8g\	pec-	.	8cc\	pec-	.
4F\ 4d	-ca-	4g\ 4bn	.	.	.	4F\	-ca-	.	4d\	-ca-	.	.	4g\	-ca-	.	4bn\	-ca-	.
4D\ 4B	-ta	4g\ 4ff	.	.	.	4D\	-ta	.	4Bn\	-ta	.	.	4g\	-ta	.	4ff\	-ta	.
!	!	!	!	!	!	!	!	!	!LO:LB:g=original	!	!	!	!	!	!	!	!	!
=58	=58	=58	=58	=58	=58	=58	=58	=58	=58	=58	=58	=58	=58	=58	=58	=58	=58	=58
4C\ 4c	mun-	4g\ 4ff	.	.	.	4C\	mun-	.	4c\	mun-	.	.	4g\	mun-	.	4ff\	mun-	.
4C\ 4G	-di	4g\ 4ee-X	.	.	.	4C\	-di	.	4G\	-di	.	.	4g\	-di	.	4ee-X\	-di	.
2r	.	2r	.	.	.	2r	.	.	2r	.	.	.	2r	.	.	2r	.	.
!	!	!	!	!	!	!LO:LB:g=original	!	!	!	!	!	!	!	!	!	!	!	!
=59	=59	=59	=59	=59	=59	=59	=59	=59	=59	=59	=59	=59	=59	=59	=59	=59	=59	=59
!	!	!	!	!	!LO:DY:b	!	!	!LO:DY:b	!LO:TX:a:t=P:problem:zapis dynamiki na środku pięciolinii	!	!	!	!LO:TX:a:t=P:problem:zapis dynamiki na środku pięciolinii	!	!	!LO:TX:a:t=P:problem:zapis dynamiki na środku pięciolinii	!	!
4.C\ 4.A-X	Sus-	4.e/ 4.ee-X	.	.	f	4.C/	Sus-	f	4.A-X\	Sus-	.	f	4.e-X\	Sus-	f	4.ee-X\	Sus-	f
8C\ 8A-	-ci-	8e/ 8cc	.	.	.	8C/	-ci-	.	8A-\	-ci-	.	.	8e-\	-ci-	.	8cc\	-ci-	.
4C\ 4A-	-pe	4e/ 4a-X	.	.	.	4C/	-pe	.	4A-\	-pe	.	.	4e-\	-pe	.	4a-X\	-pe	.
4r	.	4r	.	.	.	4r	.	.	4r	.	.	.	4r	.	.	4r	.	.
!	!	!	!	!	!	!	!	!	!	!	!	!	!LO:LB:g=original	!	!	!	!	!
=60	=60	=60	=60	=60	=60	=60	=60	=60	=60	=60	=60	=60	=60	=60	=60	=60	=60	=60
4.D-X\ 4.B-X	Sus-	4.f\ 4.ff	.	.	.	4.D-X\	Sus-	.	4.B-X\	Sus-	.	.	4.f\	Sus-	.	4.ff\	Sus-	.
8D-\ 8B-	-ci-	8f\ 8dd-X	.	.	.	8D-\	-ci-	.	8B-\	-ci-	.	.	8f\	-ci-	.	8dd-X\	-ci-	.
4D-\ 4d-X	-pe	4f\ 4b-X	.	.	.	4D-\	-pe	.	4d-X\	-pe	.	.	4f\	-pe	.	4b-X\	-pe	.
4r	.	4r	.	.	.	4r	.	.	4r	.	.	.	4r	.	.	4r	.	.
!LO:LB:g=original	!	!LO:LB:g=original	!	!	!	!	!	!	!	!	!	!	!	!	!	!LO:LB:g=original	!	!
=61	=61	=61	=61	=61	=61	=61	=61	=61	=61	=61	=61	=61	=61	=61	=61	=61	=61	=61
*^	*	*	*	*	*	*	*	*	*	*	*	*	*	*	*	*	*	*
8c/	8E-X\	de-	8e/ 8a-X	.	.	.	8E-X\	de-	.	8c\	de-	.	.	8e-X\	de-	.	8a-X/	de-	.
8c/	8E-\	-pre-	8e/ 8a-	.	.	.	8E-\	-pre-	.	8c\	-pre-	.	.	8e-\	-pre-	.	8a-/	-pre-	.
8B-X/	8E-\	-ca-	8e/ 8g	.	.	.	8E-\	-ca-	.	8B-X\	-ca-	.	.	8e-\	-ca-	.	8g/	-ca-	.
8c/	8E-\	-ti-	8e/ 8a-	.	.	.	8E-\	-ti-	.	8c\	-ti-	.	.	8e-\	-ti-	.	8a-/	-ti-	.
4.e-X/	4E-\	-o-	4.g/ 4.cc	.	.	.	4E-\	-o-	.	4.e-X\	-o-	.	.	4.g\	-o-	.	4.cc/	-o-	.
.	4E-\	.	.	.	.	.	4E-\	-nem	.	.	.	.	.	.	.	.	.	.	.
8d-X/	.	-nem	8g/ 8b-X	.	.	.	.	.	.	8d-X\	-nem	.	.	8g\	-nem	.	8b-X/	-nem	.
*v	*v	*	*	*	*	*	*	*	*	*	*	*	*	*	*	*	*	*	*
!	!	!	!	!	!	!LO:LB:g=original	!	!	!LO:LB:g=original	!	!	!	!	!	!	!	!	!
=62	=62	=62	=62	=62	=62	=62	=62	=62	=62	=62	=62	=62	=62	=62	=62	=62	=62	=62
*	*	*^	*	*	*	*	*	*	*	*	*	*	*	*	*	*	*	*
4A-X\ 4d-X	no-	4b-X/	4g/	.	.	.	4A-X\	mos-	.	4d-X\	no-	.	.	4g\	no-	.	4b-X/	no-	.
4A-\ 4c	-stram	4a-X/	4a-\	.	.	.	4A-\	-tram	.	4c\	-stram	.	.	4a-X\	-stram	.	4a-X/	-stram	.
4r	.	4r	4r	.	.	.	4r	.	.	4r	.	.	.	4r	.	.	4r	.	.
!	!	!	!	!	!	!LO:DY:b	!	!	!	!	!	!	!	!	!	!	!	!	!
4C\ 4c	Qui	4cc/	4c/	.	.	p	4C/	Qui	.	4c\	Qui	.	.	4c\	Qui	.	4cc/	Qui	.
*	*	*v	*v	*	*	*	*	*	*	*	*	*	*	*	*	*	*	*	*
!	!	!	!	!	!	!	!	!	!	!	!	!	!LO:LB:g=original	!	!	!	!	!
=63	=63	=63	=63	=63	=63	=63	=63	=63	=63	=63	=63	=63	=63	=63	=63	=63	=63	=63
4En\ 4c	se-	4c/ 4g	.	.	.	4En\	se-	.	4c\	se-	.	.	4e\	se-	.	4g/	se-	.
8E\ 8c	-des	8c/ 8g	.	.	.	8E\	-des	.	8c\	-des	.	.	8e\	-des	.	8g/	-des	.
8E\ 8c	ad	8B/ 8g	.	.	.	8E\	ad	.	8c\	ad	.	.	8e\	ad	.	8g/	ad	.
4F\ 4c	dex-	4f/ 4b-X	.	.	.	4F\	dex-	.	4c\	dex-	.	.	4e\	dex-	.	4b-X/	dex-	.
8F\ 8c	-te-	8f/ 8b-	.	.	.	8F\	-te-	.	8c\	-te-	.	.	8e\	-te-	.	8b-/	-te-	.
8F\ 8c	-ram	8f/ 8a-X	.	.	.	8F\	-ram	.	8c\	-ram	.	.	8e\	-ram	.	8a-X/	-ram	.
=64	=64	=64	=64	=64	=64	=64	=64	=64	=64	=64	=64	=64	=64	=64	=64	=64	=64	=64
4C\ 4c	Pa-	4f/ 4a-X	.	.	.	4C\	Pa-	.	4c\	Pa-	.	.	4e\	Pa-	.	4a-X/	Pa-	.
4C\ 4c	-tris	4en/ 4g	.	.	.	4C\	-tris	.	4c\	-tris	.	.	4e\	-tris	.	4g/	-tris	.
4C\ 4c	mi-	4e/ 4g	.	.	.	4C\	mi-	.	4c\	mi-	.	.	4e\	mi-	.	4g/	mi-	.
4C\ 4c	-se-	4e/ 4g	.	.	.	4C\	-se-	.	4c\	-se-	.	.	4e\	-se-	.	4g/	-se-	.
!LO:LB:g=original	!	!LO:LB:g=original	!	!	!	!	!	!	!	!	!	!	!	!	!	!LO:LB:g=original	!	!
=65	=65	=65	=65	=65	=65	=65	=65	=65	=65	=65	=65	=65	=65	=65	=65	=65	=65	=65
2.D-X\ 2.Bn	-re-	2.f/ 2.g	.	.	.	2.D-X\	-re-	.	2.Bn\	-re-	.	.	2.f\	-re-	.	2.g/	-re-	.
4D-\ 4B	-re	4f/ 4g	.	.	.	4D-\	-re	.	4B\	-re	.	.	4f\	-re	.	4g/	-re	.
!	!	!	!	!	!	!LO:LB:g=original	!	!	!LO:LB:g=original	!	!	!	!	!	!	!	!	!
=66	=66	=66	=66	=66	=66	=66	=66	=66	=66	=66	=66	=66	=66	=66	=66	=66	=66	=66
4C\ 4c	no-	4e/ 4a-X	.	.	.	4C\	no-	.	4c\	no-	.	.	4e\	no-	.	4a-X/	no-	.
4C\ 4c	-bis	4e/ 4g	.	.	.	4C\	-bis	.	4c\	-bis	.	.	4e\	-bis	.	4g/	-bis	.
4r	.	4r	.	.	.	4r	.	.	4r	.	.	.	4r	.	.	4r	.	.
!	!	!	!	!	!	!	!	!	!	!	!	!LO:DY:a	!	!	!	!	!	!LO:DY:a
4C\ 4c	Qui	4c/ 4cc	.	.	.	4C\	Qui	p	4c\	Qui	.	p	4c\	Qui	.	4cc\	Qui	p
!	!	!	!	!	!	!	!	!	!	!	!	!	!LO:LB:g=original	!	!	!	!	!
=67	=67	=67	=67	=67	=67	=67	=67	=67	=67	=67	=67	=67	=67	=67	=67	=67	=67	=67
!	!	!	!	!	!	!	!	!	!	!	!	!	!LO:TX:a:t=P:problem:zapis dynamiki na środku pięciolinii	!	!	!	!	!
4E\ 4c	se-	4c/ 4g	.	.	.	4E\	se-	.	4c\	se-	.	.	4c\	se-	p	4g/	se-	.
8E\ 8c	-des	8c/ 8f#X	.	.	.	8E\	-des	.	8c\	-des	.	.	8c\	-des	.	8f#X/	-des	.
8E\ 8c	ad	8c/ 8g	.	.	.	8E\	ad	.	8c\	ad	.	.	8c\	ad	.	8g/	ad	.
4F\ 4c	dex-	4c/ 4b-X	.	.	.	4F\	dex-	.	4c\	dex-	.	.	4c\	dex-	.	4b-X/	dex-	.
8F\ 8c	-te-	8c/ 8b-	.	.	.	8F\	-te-	.	8c\	-te-	.	.	8c\	-te-	.	8b-/	-te-	.
8E\ 8c	-ram	8c/ 8a-X	.	.	.	8F\	-ram	.	8c\	-ram	.	.	8c\	-ram	.	8a-X/	-ram	.
=68	=68	=68	=68	=68	=68	=68	=68	=68	=68	=68	=68	=68	=68	=68	=68	=68	=68	=68
4C\ 4c	Pa-	4f/ 4a-X	.	.	.	4C\	Pa-	.	4c\	Pa-	.	.	4f\	Pa-	.	4a-X/	Pa-	.
4C\ 4c	-tris	4e/ 4g	.	.	.	4C\	-tris	.	4c\	-tris	.	.	4e\	-tris	.	4g/	-tris	.
4C\ 4G	mi-	4c/ 4e	.	.	.	4C\	mi-	.	4G/	mi-	.	.	4c\	mi-	.	4e/	mi-	.
4E\ 4G	-se-	4c/ 4g	.	.	.	4E\	-se-	.	4G/	-se-	.	.	4c\	-se-	.	4g/	-se-	.
!LO:LB:g=original	!	!LO:LB:g=original	!	!	!	!	!	!	!	!	!	!	!	!	!	!LO:LB:g=original	!	!
=69	=69	=69	=69	=69	=69	=69	=69	=69	=69	=69	=69	=69	=69	=69	=69	=69	=69	=69
*^	*	*^	*	*	*	*	*	*	*	*	*	*	*	*	*	*	*	*
4F/	4F\	-re-	4a/	4c/	.	.	.	4F\	-re-	.	4F/	-re-	.	.	4c\	-re-	.	4a/	-re-	.
4F/	4F\	-re	4a/	8d\L	.	.	.	4F\	-re	.	4F/	-re	.	.	(8d\L	-re	.	4a/	-re	.
.	.	.	.	8c\J	.	.	.	.	.	.	.	.	.	.	8c\J)	.	.	.	.	.
2G/	2G\	no-	4g/	4B/	.	.	.	2G\	no-	.	2G/	no-	.	.	(4B\	no-	.	(4g/	no-	.
.	.	.	4f/	4d/	.	.	.	.	.	.	.	.	.	.	4d\)	.	.	4f/)	.	.
*v	*v	*	*	*	*	*	*	*	*	*	*	*	*	*	*	*	*	*	*	*
!	!	!	!	!	!	!	!LO:LB:g=original	!	!	!LO:LB:g=original	!	!	!	!LO:LB:g=original	!	!	!	!	!
=70	=70	=70	=70	=70	=70	=70	=70	=70	=70	=70	=70	=70	=70	=70	=70	=70	=70	=70	=70
2G#X\ 2B	-bis	2e/	2d\	.	.	.	2G#X\	-bis	.	2B\	-bis	.	.	2d\	-bis	.	2e/	-bis	.
4A\ 4c	mi-	4cc/	4e/	.	.	.	4A\	mi-	.	4c\	mi-	.	.	4e\	mi-	.	4cc\	mi-	.
4A\ 4c	-se-	4e/	4c/	.	.	.	4A\	-se-	.	4c\	-se-	.	.	4c\	-se-	.	4e/	-se-	.
=71	=71	=71	=71	=71	=71	=71	=71	=71	=71	=71	=71	=71	=71	=71	=71	=71	=71	=71	=71
*^	*	*	*	*	*	*	*	*	*	*	*	*	*	*	*	*	*	*	*
4c\	4F\	-re-	4d/	4c\	.	.	.	4F\	-re-	.	4c\	-re-	.	.	4c\	-re-	.	4d/	-re-	.
4c\	4F\	-re	4a/	8d\L	.	.	.	4F\	-re	.	4c\	-re	.	.	(8d\L	-re	.	4a/	-re	.
.	.	.	.	8c\J	.	.	.	.	.	.	.	.	.	.	8c\J)	.	.	.	.	.
4G/	4G\	no-	4g/	2B\	.	.	.	(4G\	no-	.	(4G/	no-	.	.	2B\	no-	.	(4g/	no-	.
4F/	4GG\	.	4B/	.	.	.	.	4GG/)	.	.	4F/)	.	.	.	.	.	.	4B/)	.	.
*v	*v	*	*	*	*	*	*	*	*	*	*	*	*	*	*	*	*	*	*	*
=72	=72	=72	=72	=72	=72	=72	=72	=72	=72	=72	=72	=72	=72	=72	=72	=72	=72	=72	=72
4C\ 4E	-bis	4c/	4c\	.	.	.	4C\	-bis	.	4E/	-bis	.	.	4c\	-bis	.	4c/	-bis	.
4r	.	4r	4ryy	.	.	.	4r	.	.	4r	.	.	.	4r	.	.	4r	.	.
2r	.	2r	2ryy	.	.	.	2r	.	.	2r	.	.	.	2r	.	.	2r	.	.
*	*	*v	*v	*	*	*	*	*	*	*	*	*	*	*	*	*	*	*	*
=73	=73	=73	=73	=73	=73	=73	=73	=73	=73	=73	=73	=73	=73	=73	=73	=73	=73	=73
!	!	!	!	!	!LO:DY:b	!LO:TX:a:t=P:problem:zapis dynamiki na środku pięciolinii	!	!	!LO:TX:a:t=P:problem:zapis dynamiki na środku pięciolinii	!	!	!	!LO:TX:a:t=P:problem:zapis dynamiki na środku pięciolinii	!	!	!LO:TX:a:t=P:problem:zapis dynamiki na środku pięciolinii	!	!
4.F\ 4.c	Quo-	4.f/ 4.a	.	.	f	4.F\	Quo-	f	4.c\	Quo-	.	f	4.f\	Quo-	f	4.a/	Quo-	f
8F\ 8c	-ni-	8f/ 8a	.	.	.	8F\	-ni-	.	8c\	-ni-	.	.	8f\	-ni-	.	8a/	-ni-	.
4F\ 4c	-am	4f/ 4a	.	.	.	4F\	-am	.	4c\	-am	.	.	4f\	-am	.	4a/	-am	.
4F\ 4c	tu	4f/ 4a	.	.	.	4F\	tu	.	4c\	tu	.	.	4f\	tu	.	4a/	tu	.
!LO:LB:g=original	!	!LO:LB:g=original	!	!	!	!	!	!	!	!	!	!	!LO:LB:g=original	!	!	!LO:LB:g=original	!	!
=74	=74	=74	=74	=74	=74	=74	=74	=74	=74	=74	=74	=74	=74	=74	=74	=74	=74	=74
2BB-X\ 2d	so-	2f/ 2b-X	.	.	.	2BB-X/	so-	.	2d\	so-	.	.	2f\	so-	.	2b-X\	so-	.
4BB-\ 4d	-lus	4f/ 4b-	.	.	.	4BB-/	-lus	.	4d\	-lus	.	.	4f\	-lus	.	4b-\	-lus	.
!	!	!	!	!	!	!	!	!	!LO:TX:a:t=P:problem:zapis dynamiki na środku pięciolinii	!	!	!	!LO:TX:a:t=P:problem:zapis dynamiki na środku pięciolinii	!	!	!	!	!
4BB-\ 4d	tu	4f/ 4b-	.	.	.	4BB-/	tu	.	4d\	tu	.	p	4f\	tu	p	4b-\	tu	.
!	!	!	!	!	!	!LO:LB:g=original	!	!	!	!	!	!	!	!	!	!	!	!
=75	=75	=75	=75	=75	=75	=75	=75	=75	=75	=75	=75	=75	=75	=75	=75	=75	=75	=75
*	*	*^	*	*	*	*	*	*	*	*	*	*	*	*	*	*	*	*
2.C\ 2.c	so-	2.g/	4f\	.	.	.	2.C/	so-	.	2.c\	so-	.	.	4f\	so-	.	(2.g/	so-	.
.	.	.	8e\L	.	.	.	.	.	.	.	.	.	.	(8e\L	.	.	.	.	.
.	.	.	8d\J	.	.	.	.	.	.	.	.	.	.	8d\J)	.	.	.	.	.
.	.	.	4e\	.	.	.	.	.	.	.	.	.	.	4e\	.	.	.	.	.
4E\ 4c	-lus	4cc/	4g/	.	.	.	4E\	-lus	.	4c\	-lus	.	.	4g\	-lus	.	4cc\)	-lus	.
*	*	*v	*v	*	*	*	*	*	*	*	*	*	*	*	*	*	*	*	*
=76	=76	=76	=76	=76	=76	=76	=76	=76	=76	=76	=76	=76	=76	=76	=76	=76	=76	=76
4G\ 4c	San-	4e/ 4b-X	.	.	.	4G\	San-	.	4c\	San-	.	.	4e\	San-	.	4b-X\	San-	.
4F\ 4c	-ctus	4f/ 4a	.	.	.	4F\	-ctus	.	4c\	-ctus	.	.	4f\	-ctus	.	4a\	-ctus	.
4r	.	4r	.	.	.	4r	.	.	4r	.	.	.	4r	.	.	4r	.	.
!	!	!	!	!	!	!	!	!LO:DY:a	!	!	!	!	!	!	!	!	!	!
4F\ 4c	Tu	4f/ 4a	.	.	.	4F\	Tu	p	4c\	Tu	.	.	4f\	Tu	.	4a\	Tu	.
=77	=77	=77	=77	=77	=77	=77	=77	=77	=77	=77	=77	=77	=77	=77	=77	=77	=77	=77
!	!	!	!	!	!LO:DY:b	!	!	!	!	!	!	!	!	!	!	!	!	!
2E\ 2c#X	so-	2d/ 2a	.	.	ff	2E\	so-	.	2c#X\	so-	.	.	2e\	so-	.	2a/	so-	ff
4E\ 4A	-lus	4c#X/ 4e	.	.	.	4E\	-lus	.	4A\	-lus	.	.	4c#X\	-lus	.	4e/	-lus	.
4E\ 4c#	tu	4e/ 4a	.	.	.	4E\	tu	.	4c#\	tu	.	.	4e\	tu	.	4a/	tu	.
!	!	!	!	!	!	!	!	!	!	!	!	!	!LO:LB:g=original	!	!	!	!	!
=78	=78	=78	=78	=78	=78	=78	=78	=78	=78	=78	=78	=78	=78	=78	=78	=78	=78	=78
*^	*	*^	*	*	*	*	*	*	*	*	*	*	*	*	*	*	*	*
2e/	2E\	so-	2cc#X/	2a\	.	.	.	2E\	so-	.	2e\	so-	.	.	2a\	so-	.	2cc#X\	so-	.
4c#X/	2E\	-lus	4a/	2e\	.	.	.	2E\	-lus	.	(4c#X\	-lus	.	.	2e\	-lus	.	(4a\	-lus	.
4A/	.	.	4cc#/	.	.	.	.	.	.	.	4A\)	.	.	.	.	.	.	4cc#\)	.	.
*v	*v	*	*	*	*	*	*	*	*	*	*	*	*	*	*	*	*	*	*	*
*	*	*v	*v	*	*	*	*	*	*	*	*	*	*	*	*	*	*	*	*
!LO:PB:g=original	!	!LO:PB:g=original	!	!	!	!	!	!	!	!	!	!	!	!	!	!LO:LB:g=original	!	!
=79	=79	=79	=79	=79	=79	=79	=79	=79	=79	=79	=79	=79	=79	=79	=79	=79	=79	=79
2.E\ 2.B	Do-	2.g#X/ 2.ee	.	.	.	2.E\	Do-	.	2.B\	Do-	.	.	2.g#X\	Do-	.	2.ee\	Do-	.
4E\ 4d	-mi-	4e/ 4g#X	.	.	.	4E\	-mi-	.	4d\	-mi-	.	.	4e\	-mi-	.	4g#X/	-mi-	.
!	!	!	!	!	!	!LO:LB:g=original	!	!	!LO:LB:g=original	!	!	!	!	!	!	!	!	!
=80	=80	=80	=80	=80	=80	=80	=80	=80	=80	=80	=80	=80	=80	=80	=80	=80	=80	=80
4A\ 4c#X	-nus	4e/ 4a	.	.	.	4A\	-nus	.	4c#X\	-nus	.	.	4e\	-nus	.	4a/	-nus	.
4r	.	4r	.	.	.	4r	.	.	4r	.	.	.	4r	.	.	4r	.	.
4r	.	4r	.	.	.	4r	.	.	4r	.	.	.	4r	.	.	4r	.	.
!	!	!	!	!	!LO:DY:b	!	!	!	!	!	!	!	!	!	!	!LO:TX:a:t=P:problem:zapis dynamiki na środku pięciolinii	!	!LO:DY:a
4A\ 4c#	Tu	4e/ 4a	.	.	p	4A\	Tu	.	4c#\	Tu	.	.	4e\	Tu	.	4a/	Tu	p
=81	=81	=81	=81	=81	=81	=81	=81	=81	=81	=81	=81	=81	=81	=81	=81	=81	=81	=81
*	*	*^	*	*	*	*	*	*	*	*	*	*	*	*	*	*	*	*
2F#X\ 2B	so-	4a/	2d#X\	.	.	.	2F#X\	sol-	.	2B\	so-	.	.	2d#X\	sol-	.	(4a/	sol-	.
.	.	4cc#X/	.	.	.	.	.	.	.	.	.	.	.	.	.	.	4cc#X/)	.	.
4F#\ 4B	-lus	4b/	4d#/	.	.	.	4F#\	-lus	.	4B\	-lus	.	.	4d#\	-lus	.	4b/	-lus	.
4F#\ 4B	al-	4a/	4d#/	.	.	.	4F#\	al-	.	4B\	al-	.	.	4d#\	al-	.	4a/	al-	.
*	*	*v	*v	*	*	*	*	*	*	*	*	*	*	*	*	*	*	*	*
!	!	!	!	!	!	!	!	!	!	!	!	!	!LO:LB:g=original	!	!	!	!	!
=82	=82	=82	=82	=82	=82	=82	=82	=82	=82	=82	=82	=82	=82	=82	=82	=82	=82	=82
4.E\ 4.B	-tis-	4.e/ 4.g#X	.	.	.	4.E\	-tis-	.	4.B\	-tis-	.	.	4.e\	-tis-	.	4.g#X/	-tis-	.
8E\ 8B	-si-	8f#X/ 8a	.	.	.	8E\	-si-	.	8B\	-si-	.	.	8f#X\	-si-	.	8a/	-si-	.
4E\ 4B	-mus	4g#X/ 4b	.	.	.	4E\	-mus	.	4B\	-mus	.	.	4g#X\	-mus	.	4b/	-mus	.
4E\ 4B	Tu	4e/ 4gn	.	.	.	4E\	Tu	.	4B\	Tu	.	.	4e\	Tu	.	4gn/	Tu	.
=83	=83	=83	=83	=83	=83	=83	=83	=83	=83	=83	=83	=83	=83	=83	=83	=83	=83	=83
2C#X\ 2A	sol-	4e/ 4g	.	.	.	2C#X\	so-	.	2A\	sol-	.	.	(4e\	sol	.	(4g/	sol-	.
.	.	4g/ 4b	.	.	.	.	.	.	.	.	.	.	4gn\)	[[lus]]-	.	4b/)	.	.
4C#\ 4A	-lus	4f#X/ 4a	.	.	.	4C#\	-lus	.	4A\	-lus	.	.	4f#X\	-lus	.	4a/	-lus	.
4C#\ 4A	al-	4e/ 4g	.	.	.	4C#\	al-	.	4A\	al-	.	.	4e\	al-	.	4g/	al-	.
!LO:LB:g=original	!	!LO:LB:g=original	!	!	!	!LO:LB:g=original	!	!	!LO:LB:g=original	!	!	!	!	!	!	!LO:LB:g=original	!	!
=84	=84	=84	=84	=84	=84	=84	=84	=84	=84	=84	=84	=84	=84	=84	=84	=84	=84	=84
4.D\ 4.A	-tis-	4.d/ 4.f#X	.	.	.	4.D\	-tis-	.	4.A\	-tis-	.	.	4.d\	-tis-	.	4.f#X/	-tis-	.
8D\ 8A	-si-	8e/ 8g	.	.	.	8D\	-si-	.	8A\	-si-	.	.	8e\	-si-	.	8g/	-si-	.
4D\ 4A	-mus	4f#/ 4a	.	.	.	4D\	-mus	.	4A\	-mus	.	.	4f#X\	-mus	.	4a/	-mus	.
4D\ 4A	al-	4f#/ 4a	.	.	.	4D\	al-	.	4A\	al-	.	.	4f#\	al-	.	4a/	al-	.
=85	=85	=85	=85	=85	=85	=85	=85	=85	=85	=85	=85	=85	=85	=85	=85	=85	=85	=85
*	*	*^	*	*	*	*	*	*	*	*	*	*	*	*	*	*	*	*
4D\ 4A	-tis-	4.a/	4f\	.	.	.	4D\	-tis-	.	4A\	-tis-	.	.	4f#X\	-tis-	.	4.a/	-tis-	.
4D\ 4G#X	-si-	.	4e#X\	.	.	.	4D\	-si-	.	4G#X\	-si-	.	.	4e#X\	-si-	.	.	.	.
.	.	8b/	.	.	.	.	.	.	.	.	.	.	.	.	.	.	8b/	-si-	.
4D\ 4A	-mus	4ccn/	4f/	.	.	.	4D\	-mus	.	4A\	-mus	.	.	4f#\	-mus	.	4ccn\	-mus	.
4D\ 4A	al-	4cc/	4f/	.	.	.	4D\	al-	.	4A\	al-	.	.	4f#\	al-	.	4cc\	al-	.
*	*	*v	*v	*	*	*	*	*	*	*	*	*	*	*	*	*	*	*	*
!	!	!	!	!	!	!	!	!	!	!	!	!	!LO:LB:g=original	!	!	!	!	!
=86	=86	=86	=86	=86	=86	=86	=86	=86	=86	=86	=86	=86	=86	=86	=86	=86	=86	=86
4.D\ 4.A	-tis-	4.f#X/ 4.cc	.	.	.	4.D\	-tis-	.	4.A\	-tis-	.	.	4.f#X\	-tis-	.	4.cc\	-tis-	.
8D\ 8B	-si-	8f#/ 8b	.	.	.	8D\	-si-	.	8B\	-si-	.	.	8f#\	-si-	.	8b\	-si-	.
4D\ 4c	-mus	4f#/ 4a	.	.	.	4D\	-mus	.	4c\	-mus	.	.	4f#\	-mus	.	4a\	-mus	.
4r	.	4r	.	.	.	4r	.	.	4r	.	.	.	4r	.	.	4r	.	.
!	!	!	!	!	!	!	!	!	!LO:TX:a:t=P:problem:po t.86 wykreślony jeden takt	!	!	!	!	!	!	!	!	!
!	!	!	!	!	!	!	!	!	!LO:LB:g=original	!	!	!	!	!	!	!	!	!
=87	=87	=87	=87	=87	=87	=87	=87	=87	=87	=87	=87	=87	=87	=87	=87	=87	=87	=87
!	!	!	!	!	!LO:DY:b	!LO:TX:a:t=P:problem:zapis dynamiki na środku pięciolinii	!	!	!LO:TX:a:t=P:problem:zapis dynamiki na środku pięciolinii	!	!	!	!LO:TX:a:t=P:problem:zapis dynamiki na środku pięciolinii	!	!	!LO:TX:a:t=P:problem:zapis dynamiki na środku pięciolinii	!	!LO:DY:a
2.G\ 2.d	Je-	2.g/ 2.b	.	.	f	2.G\	Je-	f	2.d\	Je-	.	f	2.g\	Je-	f	2.b\	Je-	f
4G\ 4d	-su	4g/ 4b	.	.	.	4G\	-su	.	4d\	-su	.	.	4g\	-su	.	4b\	-su	.
!	!	!	!	!	!	!LO:LB:g=original	!	!	!	!	!	!	!	!	!	!LO:LB:g=original	!	!
=88	=88	=88	=88	=88	=88	=88	=88	=88	=88	=88	=88	=88	=88	=88	=88	=88	=88	=88
*	*	*^	*	*	*	*	*	*	*	*	*	*	*	*	*	*	*	*
4D#X\ 4c	Chri-	4a/	4f#X\	.	.	.	4D#X\	Chri-	.	4c\	Chri-	.	.	4f#X\	Chri-	.	4a/	Chri-	.
4E\ 4B	-ste	4g/	4g\	.	.	.	4E\	-ste	.	4B\	-ste	.	.	4g\	-ste	.	4g/	-ste	.
2r	.	4g/	2r	Je-	.	.	2r	.	.	2r	.	.	.	2r	.	.	4g/	Je-	.
.	.	4g/	.	-su	.	.	.	.	.	.	.	.	.	.	.	.	4g/	-su	.
!LO:LB:g=original	!	!LO:LB:g=original	!	!	!	!	!	!	!	!	!	!	!	!	!	!	!	!	!
=89	=89	=89	=89	=89	=89	=89	=89	=89	=89	=89	=89	=89	=89	=89	=89	=89	=89	=89	=89
!	!	!	!	!	!	!LO:DY:b	!	!	!	!	!	!	!	!	!	!	!	!	!
4C\ 4G	Je-	1a	2e\	Chris	.	p	4C\	Je-	.	4G/	Je-	.	.	(2e\	Chris-	.	1a	Chri-	.
4C\ 4G	-su	.	.	.	.	.	4C\	-su	.	4G/	-su	.	.	.	.	.	.	.	.
2D\ 2F#X	Chris-	.	(>4d\	.	.	.	2D\	Chri-	.	2F#X/	Chris-	.	.	(4d\)	.	.	.	.	.
.	.	.	4c\)	.	.	.	.	.	.	.	.	.	.	4c\)	.	.	.	.	.
!	!	!	!	!	!	!	!	!	!	!	!	!	!	!LO:PB:g=original	!	!	!	!	!
=90	=90	=90	=90	=90	=90	=90	=90	=90	=90	=90	=90	=90	=90	=90	=90	=90	=90	=90	=90
*^	*	*	*	*	*	*	*	*	*	*	*	*	*	*	*	*	*	*	*
!	!	!	!	!	!	!	!LO:DY:a	!	!	!	!	!	!	!	!	!	!	!	!	!
4B/	4G\	-ste	4g/	4B\	.	.	<	4GG/	-ste	.	4G/	-ste	.	.	4B\	-ste	.	4g/	-ste	.
8G/L	4G\	al-	8B/L	8B\L	.	.	.	4G\	al-	.	(8G/L	al-	.	.	(8B\L	al-	.	(8B/L	al-	.
8B/J	.	.	8d/J	8d\J	.	.	.	.	.	.	8B/J)	.	.	.	8d\J)	.	.	8d/J)	.	.
8B/L	4D\	-tis-	8d/L	4d\	.	.	.	4D\	-ti-	.	(8B\L	-tis-	.	.	(8d\L	-tis-	.	(8d/L	-tis-	.
8d/J	.	.	8g/J	.	.	.	.	.	.	.	8d\J)	.	.	.	8g\J)	.	.	8g/J)	.	.
4d/	4BB\	-si-	8g/L	8d\L	.	.	.	4BB\	-s-	.	4d\	-si-	.	.	4g\	-si-	.	(8g/L	-si-	.
.	.	.	8b/J	8g\J	.	.	.	.	.	.	.	.	.	.	.	.	.	8b/J)	.	.
*	*	*	*v	*v	*	*	*	*	*	*	*	*	*	*	*	*	*	*	*	*
=91	=91	=91	=91	=91	=91	=91	=91	=91	=91	=91	=91	=91	=91	=91	=91	=91	=91	=91	=91
!	!	!	!	!	!	!LO:DY:b	!	!	!	!	!	!	!	!	!	!	!	!	!
2d/	4GG\	-mus	2g/ 2b	.	.	[ f	(4GG/	-si-	.	2d\	-mus	.	.	2g\	-mus	.	2b\	-mus	.
.	4G\	.	.	.	.	.	4G\)	-mus	.	.	.	.	.	.	.	.	.	.	.
4d/	4G\	Je-	4g/ 4b	.	.	.	4G\	Je-	.	4d\	Je-	.	.	4g\	Je-	.	4b\	Je-	.
4d/	4G\	-su	4g/ 4b	.	.	.	4G\	-su	.	4d\	-su	.	.	4g\	-su	.	4b\	-su	.
!	!	!	!	!	!	!	!	!	!	!LO:PB:g=original	!	!	!	!	!	!	!	!	!
=92	=92	=92	=92	=92	=92	=92	=92	=92	=92	=92	=92	=92	=92	=92	=92	=92	=92	=92	=92
*	*	*	*^	*	*	*	*	*	*	*	*	*	*	*	*	*	*	*	*
4c/	4D#X\	Chri-	4a/	4f\	.	.	.	4D#X\	Chri-	.	4c\	Chri-	.	.	4f\	Chris-	.	4a/	Chri-	.
4B/	4E\	-ste	4g/	4e\	.	.	.	4E\	-ste	.	4B\	-ste	.	.	4e\	-te	.	4g/	-ste	.
2r	2ryy	.	4g/	2r	Je-	.	.	2r	.	.	2r	.	.	.	2r	.	.	4g/	Je-	.
.	.	.	4g/	.	-su	.	.	.	.	.	.	.	.	.	.	.	.	4g/	-su	.
*v	*v	*	*	*	*	*	*	*	*	*	*	*	*	*	*	*	*	*	*	*
!	!	!	!	!	!	!	!LO:LB:g=original	!	!	!	!	!	!	!	!	!	!LO:LB:g=original	!	!
=93	=93	=93	=93	=93	=93	=93	=93	=93	=93	=93	=93	=93	=93	=93	=93	=93	=93	=93	=93
!	!	!	!	!	!	!LO:DY:a	!	!	!	!	!	!	!	!	!	!	!	!	!
4C\ 4G	Je-	1a	4e\	Chris	.	p	4C\	Je-	.	4G/	Je-	.	.	4e\	Je-	.	1a	Chri-	.
4C\ 4G	-su	.	4e\	.	.	.	4C\	-zu	.	4G/	-su	.	.	4e\	-su	.	.	.	.
2D\ 2F#X	Chris	.	(>4d\	.	.	.	2D\	Chris-	.	2F#X/	Chris-	.	.	(4d\	Chris-	.	.	.	.
.	.	.	4c\)	.	.	.	.	.	.	.	.	.	.	4c\)	.	.	.	.	.
*	*	*v	*v	*	*	*	*	*	*	*	*	*	*	*	*	*	*	*	*
!LO:LB:g=original	!	!LO:LB:g=original	!	!	!	!	!	!	!	!	!	!	!LO:LB:g=original	!	!	!	!	!
=94	=94	=94	=94	=94	=94	=94	=94	=94	=94	=94	=94	=94	=94	=94	=94	=94	=94	=94
*^	*	*	*	*	*	*	*	*	*	*	*	*	*	*	*	*	*	*
4G/	4GG\	te	4B/ 4g	.	.	.	4GG/	-te	.	4G/	-te	.	.	4B\	-ste	.	4g/	-ste	.
!	!	!	!	!	!	!	!LO:TX:a:t=marcatto	!	!	!	!	!	!	!	!	!	!	!	!
4r	4G\	Cum	4r	.	.	.	4G\	Cum	.	4r	.	.	.	4r	.	.	4r	.	.
2r	4G\	san-	2r	.	.	.	4G\	san-	.	2r	.	.	.	2r	.	.	2r	.	.
.	4G\	-cto	.	.	.	.	4G\	-cto	.	.	.	.	.	.	.	.	.	.	.
=95	=95	=95	=95	=95	=95	=95	=95	=95	=95	=95	=95	=95	=95	=95	=95	=95	=95	=95	=95
!	!	!	!	!	!	!	!	!	!	!	!	!	!	!	!	!	!LO:TX:b:t=2	!	!
!	!	!	!LO:TX:b:t=marcato	!	!	!	!	!	!	!	!	!	!	!LO:TX:a:t=1	!	!	!LO:TX:a:t=2	!	!
4r	4.E\	Spi-	1r	.	.	.	4.E\	Spi-	.	4r	.	.	.	1r	.	.	0r	.	.
4c/	.	.	.	.	.	.	.	.	.	4c\	Cum	.	.	.	.	.	.	.	.
.	8D\	-ri-	.	.	.	.	8D\	-ri-	.	.	.	.	.	.	.	.	.	.	.
4c/	4C\	-tu	.	.	.	.	4C\	-tu	.	4c\	San-	.	.	.	.	.	.	.	.
4c/	4E\	in	.	.	.	.	4E\	in	.	4c\	-cto	.	.	.	.	.	.	.	.
=96	=96	=96	=96	=96	=96	=96	=96	=96	=96	=96	=96	=96	=96	=96	=96	=96	=96	=96	=96
*	*	*	*^	*	*	*	*	*	*	*	*	*	*	*	*	*	*	*	*
4B/	4G\	Glo-	1re	4r	.	.	.	(4G\	Glo-	.	4B\	Spi-	.	.	4r	.	.	.	.	.
4d/	4Fn\	.	.	4g\	.	.	.	4F\)	.	.	4d\	-ri-	.	.	4g\	Cum	.	.	.	.
4c/	4E\	-ri-	.	4g\	.	.	.	4E\	-ri-	.	4c\	-tu	.	.	4g\	San-	.	.	.	.
4e/	4C\	-a	.	4g\	.	.	.	4C\	-a	.	4e\	in	.	.	4g\	-cto	.	.	.	.
!	!	!	!	!	!	!	!	!LO:LB:g=original	!	!	!LO:LB:g=original	!	!	!	!	!	!	!LO:PB:g=original	!	!
=97	=97	=97	=97	=97	=97	=97	=97	=97	=97	=97	=97	=97	=97	=97	=97	=97	=97	=97	=97	=97
4c/	4c\	de-	4r	4.e\	.	.	.	4c\	de-	.	(4c\	Glo-	.	.	4.e\	Spi-	.	4r	.	.
4A/	4A\	-i	4cc/	.	.	.	.	4A\	-i	.	4A\)	.	.	.	.	.	.	4cc\	Cum	.
.	.	.	.	8d\	.	.	.	.	.	.	.	.	.	.	8d\	-ri-	.	.	.	.
4F#X/	[>4D\	Pa-	4cc/	8c\L	.	.	.	2D\	Pa-	.	4F#X/	-ri-	.	.	(8c\L	-tu	.	4cc\	San-	.
.	.	.	.	8d\J	.	.	.	.	.	.	.	.	.	.	8d\J)	.	.	.	.	.
4A/	4D\]	.	4cc/	8e\L	.	.	.	.	.	.	4A\	-a	.	.	8e\L	in	.	4cc\	-cto	.
.	.	.	.	8f#X\J	.	.	.	.	.	.	.	.	.	.	8f#X\J	.	.	.	.	.
=98	=98	=98	=98	=98	=98	=98	=98	=98	=98	=98	=98	=98	=98	=98	=98	=98	=98	=98	=98	=98
4G/	4E\	-tris	4.b/	4.g/	.	.	.	4E\	-tris	.	4G/	de-	.	.	4g\	glo-	.	4.b\	Spi-	.
4B/	4G\	cum	.	.	.	.	.	4G\	cum	.	4B\	-i	.	.	4f#X\	.	.	.	.	.
.	.	.	8a/	8f#X/	.	.	.	.	.	.	.	.	.	.	.	.	.	8a/	-ri-	.
4e/	4B\	San-	8g/L	4e\	.	.	.	4B\	San-	.	4e\	Pa-	.	.	4e\	-ri-	.	8g/L	-tu	.
.	.	.	8a/J	.	.	.	.	.	.	.	.	.	.	.	.	.	.	8a/J	.	.
4e/	(>8A\L	-cto	8b/L	4g\	.	.	.	(8A\L	-cto	.	4e\	-tris	.	.	4g\	-a	.	8b/L	in	.
.	8G\J)	.	8cc#X/J	.	.	.	.	8G\J)	.	.	.	.	.	.	.	.	.	8cc#X/J	.	.
!LO:LB:g=original	!	!	!LO:LB:g=original	!	!	!	!	!	!	!	!	!	!	!	!LO:LB:g=original	!	!	!	!	!
=99	=99	=99	=99	=99	=99	=99	=99	=99	=99	=99	=99	=99	=99	=99	=99	=99	=99	=99	=99	=99
4d/	8F#X\L	Spi-	4dd/	4a\	.	.	.	8F#X\L	Spi-	.	[4d\	cu	.	.	4a\	de-	.	4dd\	glo-	.
.	8G\J	.	.	.	.	.	.	8G\J	.	.	.	.	.	.	.	.	.	.	.	.
4d/	8F#\L	-ri-	4dd/	8a\L	.	.	.	8F#\L	-ri-	.	4d\]	.	.	.	8a\L	-i	.	4dd\	-ri-	.
.	8E\J	.	.	8g\J	.	.	.	8E\J	.	.	.	.	.	.	8g\J	.	.	.	.	.
4d/	4D\	-tu	(8dd/L	4f#X\	.	.	.	4D\	-tu	.	4d\	san-	.	.	4f#X\	Pa-	.	(8dd\L	-a	.
.	.	.	8ee/J	.	.	.	.	.	.	.	.	.	.	.	.	.	.	8ee\J	.	.
8c/L	4D\	in	8dd/L	4f#\	.	.	.	4D\	in	.	8c\L	-cto	.	.	4f#\	-tris	.	8dd\L	.	.
8A/J	.	.	8cc/J)	.	.	.	.	.	.	.	8A\J	.	.	.	.	.	.	8ccn\J)	.	.
*v	*v	*	*	*	*	*	*	*	*	*	*	*	*	*	*	*	*	*	*	*
=100	=100	=100	=100	=100	=100	=100	=100	=100	=100	=100	=100	=100	=100	=100	=100	=100	=100	=100	=100
4D#X\ 4A	glo-	4b/	4f#X\	.	.	.	2D#X\	glo-	.	4A\	Spi-	.	.	(4f#X\	glo-	.	4b\	glo-	.
4D#\ 4A	.	4b/	4f#\	.	.	.	.	.	.	4A\	-ri-	.	.	4f#\)	.	.	4b\	-ri-	.
4E\ 4G	-ri-	4b/	4e\	.	.	.	4E\	-ri-	.	4G\	-tu	.	.	4e\	-ri-	.	2b\	-a	.
4E\ 4B	-a	4b/	4g\	.	.	.	4E\	-a	.	4B\	in	.	.	4g\	-a	.	.	.	.
!	!	!	!	!	!	!	!LO:LB:g=original	!	!	!LO:LB:g=original	!	!	!	!	!	!	!LO:LB:g=original	!	!
=101	=101	=101	=101	=101	=101	=101	=101	=101	=101	=101	=101	=101	=101	=101	=101	=101	=101	=101	=101
4F#X\ 4c	de-	4dd/	4a\	.	.	.	4F#X\	de-	.	4c\	de-	.	.	4a\	de-	.	4dd\	de-	.
4F#\ 4c	-i	4dd/	4a\	.	.	.	4F#\	-i	.	4c\	-i	.	.	4a\	-i	.	4dd\	-i	.
4G\ 4B	Pa-	4dd/	4g\	.	.	.	4G\	Pa-	.	4B\	Pa-	.	.	4g\	Pa-	.	4dd\	Pa-	.
4G\ 4d	-tris	4dd/	4b\	.	.	.	4G\	-tris	.	4d\	-tris	.	.	4b\	-tris	.	4dd\	-tris	.
=102	=102	=102	=102	=102	=102	=102	=102	=102	=102	=102	=102	=102	=102	=102	=102	=102	=102	=102	=102
*^	*	*	*	*	*	*	*	*	*	*	*	*	*	*	*	*	*	*	*
8f#X/L	4A#X\	Cum	4ff#X/	4cc#X\	.	.	.	(4A#X\	cum	.	(8f#X\L	Cum	.	.	(4cc#X\	Cum	.	(4.ff#X\	Cum	.
8e/J	.	.	.	.	.	.	.	.	.	.	8e\J)	.	.	.	.	.	.	.	.	.
4d/	4B\	.	8ff#/L	4b\	.	.	.	4B\)	.	.	4d\	.	.	.	4b\)	.	.	.	.	.
.	.	.	8ee/J	.	.	.	.	.	.	.	.	.	.	.	.	.	.	8ee\)	.	.
8e/L	4G#X\	San-	4ee/	4b\	.	.	.	4G#X\	San-	.	(8e\L	San-	.	.	4b\	San-	.	4ee\	San-	.
8d/J	.	.	.	.	.	.	.	.	.	.	8d\J)	.	.	.	.	.	.	.	.	.
4cn/	4A#\	-cto	8ee/L	4a\	.	.	.	4A#\	-cto	.	4cn\	-cto	.	.	4a\	-cto	.	(8ee\L	-cto	.
.	.	.	8dd/J	.	.	.	.	.	.	.	.	.	.	.	.	.	.	8dd\J)	.	.
!	!	!	!	!	!	!	!	!	!	!	!	!	!	!	!LO:LB:g=original	!	!	!	!	!
=103	=103	=103	=103	=103	=103	=103	=103	=103	=103	=103	=103	=103	=103	=103	=103	=103	=103	=103	=103	=103
8d/L	4F#X\	Spi-	4dd/	4a\	.	.	.	4F#X\	Spi-	.	(8d\L	Spi-	.	.	4a\	Spi-	.	4dd\	Spi-	.
8c/J	.	.	.	.	.	.	.	.	.	.	8c\J)	.	.	.	.	.	.	.	.	.
4B/	4G\	-ri-	8dd/L	4g\	.	.	.	4G\	-ri-	.	4B\	-ri-	.	.	4g\	-ri-	.	8dd\L	-ri-	.
.	.	.	8b/J	.	.	.	.	.	.	.	.	.	.	.	.	.	.	8b\J	.	.
8A/L	4E\	-tu	4cc#X/	4g\	.	.	.	4E\	-tu	.	(8A\L	-tu	.	.	4g\	-tu	.	4cc#X\	-tu	.
8B/J	.	.	.	.	.	.	.	.	.	.	8B\J)	.	.	.	.	.	.	.	.	.
8c#X/L	4AA\	in	4ee/	4g\	.	.	.	4AA/	in	.	8c#X\L	in	.	.	4g\	in	.	4ee\	in	.
8A/J	.	.	.	.	.	.	.	.	.	.	8A\J	.	.	.	.	.	.	.	.	.
!LO:LB:g=original	!	!	!LO:LB:g=original	!	!	!	!	!	!	!	!	!	!	!	!	!	!	!	!	!
=104	=104	=104	=104	=104	=104	=104	=104	=104	=104	=104	=104	=104	=104	=104	=104	=104	=104	=104	=104	=104
4A/	8D\L	glo-	4dd/	8f#X\L	.	.	.	8D\L	glo-	.	(4A\	glo-	.	.	(8f#X\L	glo-	.	2dd\	glo-	.
.	8E\J	.	.	8g\J	.	.	.	8E\J	.	.	.	.	.	.	8g\J	.	.	.	.	.
4d/	4F#X\	.	4dd/	4a\	.	.	.	4F#X\	.	.	4d\)	.	.	.	4a\)	.	.	.	.	.
4d/	4F#\	-ri-	4dd/	4a\	.	.	.	4F#\	-ri-	.	4d\	-ri-	.	.	4a\	-ri-	.	4dd\	-ri-	.
4d/	4D\	-a	4cc/	4f#\	.	.	.	4D\	-a	.	4d\	-a	.	.	4f#\	-a	.	4cc\	-a	.
*v	*v	*	*	*	*	*	*	*	*	*	*	*	*	*	*	*	*	*	*	*
*	*	*v	*v	*	*	*	*	*	*	*	*	*	*	*	*	*	*	*	*
!	!	!	!	!	!	!LO:PB:g=original	!	!	!LO:LB:g=original	!	!	!	!	!	!	!LO:LB:g=original	!	!
=105	=105	=105	=105	=105	=105	=105	=105	=105	=105	=105	=105	=105	=105	=105	=105	=105	=105	=105
4G\ 4d	de-	4g/ 4b	.	.	.	4G\	de-	.	4d\	de-	.	.	4g\	de-	.	4b\	de-	.
4G\ 4d	-i	4g/ 4b	.	.	.	4G\	-i	.	4d\	-i	.	.	4g\	-i	.	4b\	-i	.
4F#X\ 4d#X	Pa-	4a/ 4b	.	.	.	4F#X\	Pa-	.	4d#X\	Pa-	.	.	4a\	Pa-	.	4b\	Pa-	.
4F#\ 4d#	-tris	4a/ 4b	.	.	.	4F#\	-tris	.	4d#\	-tris	.	.	4a\	-tris	.	4b\	-tris	.
=106	=106	=106	=106	=106	=106	=106	=106	=106	=106	=106	=106	=106	=106	=106	=106	=106	=106	=106
*^	*	*^	*	*	*	*	*	*	*	*	*	*	*	*	*	*	*	*
4B/	8E\L	in	4b/	8g\L	.	.	.	(8E\L	in	.	(4B\	in	.	.	(8g\L	in	.	(4b\	in	.
.	8F#X\J	.	.	8a\J	.	.	.	8F#X\J)	.	.	.	.	.	.	8a\J)	.	.	.	.	.
4e/	4G\	.	4ee/	4b\	.	.	.	4G\	.	.	4e\)	.	.	.	4b\	.	.	4ee\)	.	.
4e/	4G\	glo-	4ee/	4b\	.	.	.	4G\	glo-	.	4e\	glo-	.	.	4b\	glo-	.	4ee\	glo-	.
4e/	4E\	-ri-	4b/	4g\	.	.	.	4E\	-ri-	.	4e\	-ri-	.	.	4g\	-ri-	.	4b\	-ri-	.
!	!	!	!	!	!	!	!	!	!	!	!	!	!	!	!LO:LB:g=original	!	!	!	!	!
=107	=107	=107	=107	=107	=107	=107	=107	=107	=107	=107	=107	=107	=107	=107	=107	=107	=107	=107	=107	=107
4A/	2C\	-a	4a/	2e\	.	.	.	2C/	-a	.	(4A\	-a	.	.	2e\	-a	.	(4a/	-a	.
4G#X/	.	.	4b/	.	.	.	.	.	.	.	4G#X\)	.	.	.	.	.	.	4b/)	.	.
4A/	4C\	de-	4cc/	4e\	.	.	.	4C/	de-	.	4A\	de-	.	.	4e\	de-	.	4cc\	de-	.
4c/	4C\	-i	4a/	4e/	.	.	.	4C/	-i	.	4c\	-i	.	.	4e\	-i	.	4a\	-i	.
=108	=108	=108	=108	=108	=108	=108	=108	=108	=108	=108	=108	=108	=108	=108	=108	=108	=108	=108	=108	=108
4A/	8D\L	Pa-	4a/	8f#X\L	.	.	.	8D\L	Pa-	.	(4A\	Pa-	.	.	(8f#X\L	Pa-	.	4a\	Pa-	.
.	8E\J	.	.	8g\J	.	.	.	8E\J	.	.	.	.	.	.	8g\J)	.	.	.	.	.
4d/	4F#X\	.	4dd/	4a\	.	.	.	4F#X\	-tris	.	4d\)	.	.	.	4a\	-tris	.	4dd\	-tris	.
4d/	(>4F#\	-tris	4dd/	4a\	.	.	.	(4F#\	a-	.	4d\	-tris	.	.	(4a\	a-	.	(4dd\	a-	.
4d/	4D\)	a-	4a/	4f#\	.	.	.	4D\)	.	.	4d\	a-	.	.	4f#\)	.	.	4a\)	.	.
!LO:PB:g=original	!	!	!LO:PB:g=original	!	!	!	!	!	!	!	!LO:LB:g=original	!	!	!	!	!	!	!LO:LB:g=original	!	!
=109	=109	=109	=109	=109	=109	=109	=109	=109	=109	=109	=109	=109	=109	=109	=109	=109	=109	=109	=109	=109
2B/	4G\	-men	4g/	2d\	.	.	.	4G\	-men	.	2B\	-men	.	.	2d\	-men	.	4g/	-men	.
.	4Fn\	.	4a/	.	.	.	.	4Fn\	cum	.	.	.	.	.	.	.	.	4a/	Cum	.
4c/	4E\	Cum	4g/	4c\	.	.	.	4E\	San-	.	(4c\	Cum	.	.	4cn\	San-	.	4g/	San-	.
4G/	4C\	.	4cc/	4e\	.	.	.	4C\	-cto	.	4G\)	.	.	.	4e\	-cto	.	4cc\	-cto	.
!	!	!	!	!	!	!	!	!LO:LB:g=original	!	!	!	!	!	!	!	!	!	!	!	!
=110	=110	=110	=110	=110	=110	=110	=110	=110	=110	=110	=110	=110	=110	=110	=110	=110	=110	=110	=110	=110
2c/	8F\L	San-	2a/	2d\	.	.	.	(8F\L	Spi-	.	2c\	San-	.	.	2d\	Spi-	.	2a/	Spi-	.
.	8D\J	.	.	.	.	.	.	8D\J)	.	.	.	.	.	.	.	.	.	.	.	.
.	8E\L	.	.	.	.	.	.	(8E\L	-ri-	.	.	.	.	.	.	.	.	.	.	.
.	8F\J	.	.	.	.	.	.	8F\J)	.	.	.	.	.	.	.	.	.	.	.	.
4B/	4G\	-cto	8g/L	2d\	.	.	.	4G\	-tu	.	4B\	-cto	.	.	2d\	-ri-	.	(8g/L	-ri-	.
.	.	.	8a/J	.	.	.	.	.	.	.	.	.	.	.	.	.	.	8a/	.	.
8B/L	4GG\	in	8g/L	.	.	.	.	4GG/	in	.	8B\L	in	.	.	.	.	.	8g/	.	.
8d/J	.	.	8f/J	.	.	.	.	.	.	.	8d\J	.	.	.	.	.	.	8f/J)	.	.
=111	=111	=111	=111	=111	=111	=111	=111	=111	=111	=111	=111	=111	=111	=111	=111	=111	=111	=111	=111	=111
4c/	(>4C\	glo-	4e/	4c/	.	.	.	(4C\	glo-	.	(4c\	glo-	.	.	4c\	-tu	.	(4e/	-tu	.
!	!	!	!	!	!	!	!LO:DY:a	!	!	!	!	!	!	!	!	!	!	!	!	!
4G/	4G\)	.	4g/	4g\	.	.	f	4G\)	.	.	4G\)	.	.	.	4g\	in	.	4g/)	.	.
4c/	4E\	-ri-	4cc/	4g\	.	.	.	4E\	-ri-	.	4c\	-ri-	.	.	4g\	glo-	.	(4cc\	in	.
4B/	4D\	-a	4dd/	4g\	.	.	.	4D\	-a	.	4B\	-a	.	.	4g\	-ri-	.	4dd\)	.	.
!	!	!	!	!	!	!	!	!	!	!	!	!	!	!	!LO:LB:g=original	!	!	!	!	!
=112	=112	=112	=112	=112	=112	=112	=112	=112	=112	=112	=112	=112	=112	=112	=112	=112	=112	=112	=112	=112
4c/	(>4C\	glo-	4.ee/	4g\	.	.	.	(4C\	glo-	.	(4c\	glo-	.	.	4g\	-a	.	(4.ee\	glo-	.
4B/	4F\)	.	.	4g\	.	.	.	4Fn\)	.	.	4B\)	.	.	.	4g\	glo-	.	.	.	.
.	.	.	8dd/	.	.	.	.	.	.	.	.	.	.	.	.	.	.	8dd\)	.	.
4c/	4E\	-ri-	4cc/	4g\	.	.	.	4E\	-ri-	.	4c\	-ri-	.	.	4g\	-ri-	.	4cc\	-ri-	.
4d/	4E\	-a	4b/	4g#X\	.	.	.	4E\	-a	.	4d\	-a	.	.	4g#X\	-a	.	4b\	-a	.
*v	*v	*	*	*	*	*	*	*	*	*	*	*	*	*	*	*	*	*	*	*
*	*	*v	*v	*	*	*	*	*	*	*	*	*	*	*	*	*	*	*	*
!	!	!	!	!	!	!	!	!	!	!	!	!	!	!	!	!LO:LB:g=original	!	!
=113	=113	=113	=113	=113	=113	=113	=113	=113	=113	=113	=113	=113	=113	=113	=113	=113	=113	=113
4F\ 4c	de-	4f/ 4a	.	.	.	4F\	de-	.	4c\	de-	.	.	4a\	de-	.	4a/	de-	.
4F\ 4c	-i	4f/ 4a	.	.	.	4F\	-i	.	4c\	-i	.	.	4f\	-i	.	4a/	-i	.
4D\ 4d	Pa-	4a/ 4ff	.	.	.	4D\	Pa-	.	4d\	Pa-	.	.	4a\	Pa-	.	4ff\	Pa-	.
4F\ 4d	-tris	4a/ 4dd	.	.	.	4F\	-tris	.	4d\	-tris	.	.	4a\	-tris	.	4dd\	-tris	.
!LO:LB:g=original	!	!LO:LB:g=original	!	!	!	!	!	!	!LO:LB:g=original	!	!	!	!	!	!	!	!	!
=114	=114	=114	=114	=114	=114	=114	=114	=114	=114	=114	=114	=114	=114	=114	=114	=114	=114	=114
[>2G\ 2e	a-	2g/ 2cc	.	.	.	1G	a-	.	(2e\	a-	.	.	[2g\	a-	.	(2cc\	a-	.
2G\] 2d	.	2g/ 2b	.	.	.	.	.	.	2d\)	.	.	.	2g\]	.	.	2b\)	.	.
!	!	!	!	!	!	!LO:LB:g=original	!	!	!	!	!	!	!	!	!	!	!	!
=115	=115	=115	=115	=115	=115	=115	=115	=115	=115	=115	=115	=115	=115	=115	=115	=115	=115	=115
*^	*	*^	*	*	*	*	*	*	*	*	*	*	*	*	*	*	*	*
4c/	4C\	-men	4cc/	4e/	.	.	.	4C\	-men	.	4c\	-men	.	.	4e\	-men	.	4cc\	-men	.
!	!	!	!LO:TX:a:t=Allo	!	!	!	!	!	!	!	!	!	!	!	!	!	!	!	!	!
4G/	4G\	Cum	4g/	4g\	.	.	.	4G\	Cum	.	4G/	Cum	.	.	4g\	Cum	.	4g/	Cum	.
4G/	4G\	San-	4g/	4g\	.	.	.	4G\	San-	.	4G/	San-	.	.	4g\	San-	.	4g/	San-	.
4G/	4G\	-cto	4g/	4g\	.	.	.	4G\	-cto	.	4G/	-cto	.	.	4g\	-cto	.	4g/	-cto	.
!	!	!	!	!	!	!	!	!	!	!	!	!	!	!	!LO:LB:g=original	!	!	!	!	!
=116	=116	=116	=116	=116	=116	=116	=116	=116	=116	=116	=116	=116	=116	=116	=116	=116	=116	=116	=116	=116
4.E/	4.E\	Spi-	4.e/	4.e\	.	.	.	4.E\	Spi-	.	4.E/	Spi-	.	.	4.e\	Spi-	.	4.e/	Spi-	.
8D/	8D\	-ri-	8d/	8d\	.	.	.	8D\	-ri-	.	8D/	-ri-	.	.	8d\	-ri-	.	8d/	-ri-	.
4C/	4C\	-tu	4c/	4c\	.	.	.	4C\	-tu	.	4C/	-tu	.	.	4c\	-tu	.	4c/	-tu	.
4E/	4E\	in	4e/	4e\	.	.	.	4E\	in	.	4E/	in	.	.	4e\	in	.	4e/	in	.
=117	=117	=117	=117	=117	=117	=117	=117	=117	=117	=117	=117	=117	=117	=117	=117	=117	=117	=117	=117	=117
4.G/	4.G\	glo-	4.g/	4.g\	.	.	.	(4.G\	glo-	.	(4.G/	glo-	.	.	(4.g\	glo-	.	(4.g/	glo-	.
8F/	8F\	.	8f/	8f\	.	.	.	8F\)	.	.	8F/)	.	.	.	8f\)	.	.	8f/)	.	.
4E/	4E\	-ri-	4e/	4e\	.	.	.	4E\	-ri-	.	4E/	-ri-	.	.	4e\	-ri-	.	4e/	-ri-	.
4G/	4G\	-a	4g/	4g\	.	.	.	4G\	-a	.	4G/	-a	.	.	4g\	-a	.	4g/	-a	.
!	!	!	!	!	!	!	!	!	!	!	!	!	!	!	!	!	!	!LO:LB:g=original	!	!
=118	=118	=118	=118	=118	=118	=118	=118	=118	=118	=118	=118	=118	=118	=118	=118	=118	=118	=118	=118	=118
4.c/	4.c\	de-	2cc/	2c/	.	.	.	4c\	de-	.	2c\	de-	.	.	2cc\	Pa-	.	4cc\	de-	.
.	.	.	.	.	.	.	.	4B\	-i	.	.	.	.	.	.	.	.	4cc\	-i	.
8B/	8B\	-i	.	.	.	.	.	.	.	.	.	.	.	.	.	.	.	.	.	.
!	!	!	!	!	!	!	!LO:DY:a	!	!	!	!	!	!	!	!	!	!	!	!	!
2c/	4A\	Pa-	4dd/	2f#X\	.	.	>	4A\	Pa-	.	2c\	-i	.	.	2f#X\	.	.	4dd\	Pa-	.
.	4A-X\	-tris	4dd#X/	.	.	.	.	4A-X\	-tris	.	.	.	.	.	.	.	.	4dd#X\	-tris	.
*v	*v	*	*	*	*	*	*	*	*	*	*	*	*	*	*	*	*	*	*	*
!LO:LB:g=original	!	!LO:LB:g=original	!	!	!	!	!	!	!	!LO:LB:g=original	!	!	!	!	!	!	!	!	!
=119	=119	=119	=119	=119	=119	=119	=119	=119	=119	=119	=119	=119	=119	=119	=119	=119	=119	=119	=119
[>2G\ 2c	a-	2ee/	2g/	.	.	.	1G	a-	.	(2c\	Pa-	.	.	2g\	-tris	.	(2ee\	a-	.
!	!	!LO:N:vis=1	!	!	!	!	!	!	!	!	!	!	!	!	!	!	!	!	!
2G\] 2B	.	2dd`/	4g\	.	.	]	.	.	.	2B\)	.	.	.	(4g\	a-	.	2dd\)	.	.
.	.	.	4f\	.	.	.	.	.	.	.	.	.	.	4fn\)	.	.	.	.	.
*	*	*v	*v	*	*	*	*	*	*	*	*	*	*	*	*	*	*	*	*
!	!	!	!	!	!	!LO:LB:g=original	!	!	!	!	!	!	!	!	!	!	!	!
=120	=120	=120	=120	=120	=120	=120	=120	=120	=120	=120	=120	=120	=120	=120	=120	=120	=120	=120
4C\ 4c	-men	4e\ 4cc	.	.	.	4C\	-men	.	4c\	-tris	.	.	4e\	-men	.	4cc\	-men	.
4r	.	4r	.	.	.	4r	.	.	4r	.	.	.	4r	.	.	4r	.	.
2A\ 2c	a-	2f#X\ 2dd	.	.	>	2A\	a-	.	2c\	a-	.	.	2f#X\	a-	.	2dd\	a-	.
!	!	!	!	!	!	!	!	!	!	!	!	!	!LO:LB:g=original	!	!	!	!	!
=121	=121	=121	=121	=121	=121	=121	=121	=121	=121	=121	=121	=121	=121	=121	=121	=121	=121	=121
*	*	*^	*	*	*	*	*	*	*	*	*	*	*	*	*	*	*	*
[>2G\ 2c	-men	2ee/	2g/	.	.	.	1G	.	.	2c\	-men	.	.	2g\	-men	.	2ee\	-men	.
2G\] 2d	a-	4b/	2fn\	.	.	]	.	.	.	2d\	a-	.	.	2fn\	a-	.	4b\	a-	.
.	.	8a/L	.	.	.	.	.	.	.	.	.	.	.	.	.	.	(8a\L	.	.
.	.	8b/J	.	.	.	.	.	.	.	.	.	.	.	.	.	.	8b\J)	.	.
*	*	*v	*v	*	*	*	*	*	*	*	*	*	*	*	*	*	*	*	*
=122	=122	=122	=122	=122	=122	=122	=122	=122	=122	=122	=122	=122	=122	=122	=122	=122	=122	=122
4C\ 4c	-men	4e/ 4cc	.	.	.	4C\	-men	.	4c\	-men	.	.	4e\	-men	.	4cc\	-men	.
4r	.	4r	.	.	.	4r	.	.	4r	.	.	.	4r	.	.	4r	.	.
2A-X\ 2c	a-	2f#X;\ 2dd	.	.	.	2A-X;\	a-	.	2c;\	a-	.	.	2f#X;\	a-	.	2dd;\	a	.
!	!	!	!	!	!	!	!	!	!	!	!	!	!	!	!	!LO:LB:g=original	!	!
=123	=123	=123	=123	=123	=123	=123	=123	=123	=123	=123	=123	=123	=123	=123	=123	=123	=123	=123
*^	*	*	*	*	*	*	*	*	*	*	*	*	*	*	*	*	*	*
1G 1c	4G\	.	1g 1ee	.	.	.	1G	.	.	1c	.	.	.	1g	.	.	1ee	a-	.
.	4GG\	.	.	.	.	.	.	.	.	.	.	.	.	.	.	.	.	.	.
.	4C\	.	.	.	.	.	.	.	.	.	.	.	.	.	.	.	.	.	.
.	4E\	.	.	.	.	.	.	.	.	.	.	.	.	.	.	.	.	.	.
=124	=124	=124	=124	=124	=124	=124	=124	=124	=124	=124	=124	=124	=124	=124	=124	=124	=124	=124	=124
1G 1d	2G\	.	1f 1b	.	.	.	1G	.	.	1d	.	.	.	1f	.	.	1b	.	.
.	2GG\	.	.	.	.	.	.	.	.	.	.	.	.	.	.	.	.	.	.
*v	*v	*	*	*	*	*	*	*	*	*	*	*	*	*	*	*	*	*	*
!LO:LB:g=original	!	!LO:LB:g=original	!	!	!	!	!	!	!LO:LB:g=original	!	!	!	!	!	!	!	!	!
=125	=125	=125	=125	=125	=125	=125	=125	=125	=125	=125	=125	=125	=125	=125	=125	=125	=125	=125
4C\ 4c	-men	4e\ 4cc	.	.	.	4C\	-men	.	4c\	-men	.	.	4e\	-men	.	4cc\	-men	.
4r	.	4r	.	.	.	4r	.	.	4r	.	.	.	4r	.	.	4r	.	.
!	!	!	!	!	!LO:DY:b	!	!	!	!	!	!	!	!	!	!	!	!	!
((2G\ 2d	a-	(2b\ 2gg	.	.	ff	2G\	a-	.	2d\	a-	.	.	2b\	a-	.	2gg\	a-	.
!	!	!	!	!	!	!LO:LB:g=original	!	!	!	!	!	!	!	!	!	!	!	!
=126	=126	=126	=126	=126	=126	=126	=126	=126	=126	=126	=126	=126	=126	=126	=126	=126	=126	=126
4c\ 4e))	-men	4cc\) 4ee	.	.	.	4c\	-men	.	4e\	-men	.	.	4cc\	-men	.	4ee\	-men	.
4r	.	4r	.	.	.	4r	.	.	4r	.	.	.	4r	.	.	4r	.	.
((2G\ 2B	a-	((2d/ 2g	.	.	.	2G\	a-	.	2B\	a-	.	.	2d\	a-	.	2g/	a-	.
=127	=127	=127	=127	=127	=127	=127	=127	=127	=127	=127	=127	=127	=127	=127	=127	=127	=127	=127
4C\ 4G))	-men	4c/)) 4e	.	.	.	4C\	-men	.	4G/	-men	.	.	4c\	-men	.	4e/	-men	.
4r	.	4r	.	.	.	4r	.	.	4r	.	.	.	4r	.	.	4r	.	.
2r	.	2r	.	.	.	2r	.	.	2r	.	.	.	2r	.	.	2r	.	.
==	==	==	==	==	==	==	==	==	==	==	==	==	==	==	==	==	==	==
*-	*-	*-	*-	*-	*-	*-	*-	*-	*-	*-	*-	*-	*-	*-	*-	*-	*-	*-
!!!system-decoration: [(g1)][(g2)]
!!!RDF**kern: >= above
!!!RDF**kern: <= below
!!!ENC:Anna Matuszewska
!!!END:2021-02-26
!!!ENC: Berenika Jozajtis
!!!END: 2021-01-08
